;FLAVOR:Marlin
;TIME:2016
;Filament used: 1.95532m
;Layer height: 0.2
;Generated with Cura_SteamEngine 3.4.1
M190 S60
M104 S200
M109 S200
M82 ;absolute extrusion mode
G21 ;metric values
G90 ;absolute positioning
M82 ;set extruder to absolute mode
M107 ;start with the fan off
G28 X0 Y0 ;move X/Y to min endstops
G28 Z0 ;move Z to min endstops
G1 Z15.0 F9000 ;move the platform down 15mm
G92 E0 ;zero the extruded length
G1 F200 E3 ;extrude 3mm of feed stock
G92 E0 ;zero the extruded length again
G1 F9000
;Put printing message on LCD screen
M117 Printing...
G92 E0
G1 F1500 E-6.5
;LAYER_COUNT:50
;LAYER:0
M107
G0 F3600 X75.917 Y42.98 Z0.3
;TYPE:SKIRT
G1 F1500 E0
G1 F1800 X76.325 Y42.407 E0.03509
G1 X76.75 Y41.932 E0.06689
G1 X77.254 Y41.477 E0.10077
G1 X78.308 Y40.711 E0.16577
G1 X78.898 Y40.372 E0.19972
G1 X79.633 Y40.048 E0.23979
G1 X80.157 Y39.869 E0.26742
G1 X80.918 Y39.681 E0.30653
G1 X81.581 Y39.59 E0.33992
G1 X82.724 Y39.553 E0.39697
G1 X83.223 Y39.575 E0.42189
G1 X85.565 Y39.866 E0.53963
G1 X91.046 Y40.349 E0.81414
G1 X96.831 Y40.521 E1.10288
G1 X105.815 Y40.482 E1.5511
G1 X111.287 Y40.174 E1.82453
G1 X116.876 Y39.556 E2.10507
G1 X117.285 Y39.538 E2.12549
G1 X117.905 Y39.549 E2.15643
G1 X118.542 Y39.624 E2.18843
G1 X119.789 Y39.901 E2.25216
G1 X120.399 Y40.103 E2.28421
G1 X120.959 Y40.353 E2.31481
G1 X121.394 Y40.589 E2.3395
G1 X122.083 Y41.035 E2.38045
G1 X122.557 Y41.409 E2.41057
G1 X123.235 Y42.058 E2.4574
G1 X123.684 Y42.594 E2.49228
G1 X124.292 Y43.505 E2.54692
G1 X124.566 Y44.009 E2.57554
G1 X124.835 Y44.63 E2.60931
G1 X125.005 Y45.131 E2.6357
G1 X125.201 Y45.92 E2.67626
G1 X125.278 Y46.361 E2.6986
G1 X125.329 Y46.853 E2.72327
G1 X125.342 Y47.341 E2.74763
G1 X125.295 Y48.29 E2.79503
G1 X125.197 Y48.935 E2.82758
G1 X124.955 Y49.868 E2.87567
G1 X124.789 Y50.346 E2.90091
G1 X124.67 Y50.591 E2.9145
G1 X122.953 Y53.757 E3.09419
G1 X120.476 Y58.652 E3.36789
G1 X118.291 Y63.652 E3.64012
G1 X116.378 Y68.811 E3.91462
G1 X114.774 Y74.022 E4.18664
G1 X113.442 Y79.41 E4.46354
G1 X112.919 Y82.004 E4.59556
G1 X112.056 Y87.451 E4.8707
G1 X111.507 Y92.893 E5.14358
G1 X111.265 Y98.36 E5.4166
G1 X111.334 Y103.848 E5.69042
G1 X111.711 Y109.289 E5.96252
G1 X112.398 Y114.735 E6.23638
G1 X113.394 Y120.139 E6.51052
G1 X113.989 Y122.748 E6.64403
G1 X115.441 Y128.054 E6.91848
G1 X117.189 Y133.265 E7.19269
G1 X119.216 Y138.335 E7.4651
G1 X121.534 Y143.303 E7.73861
G1 X124.571 Y148.914 E8.05692
G1 X124.693 Y149.165 E8.07084
G1 X124.962 Y149.786 E8.10461
G1 X125.132 Y150.287 E8.131
G1 X125.328 Y151.076 E8.17156
G1 X125.405 Y151.517 E8.1939
G1 X125.456 Y152.009 E8.21857
G1 X125.469 Y152.497 E8.24293
G1 X125.422 Y153.446 E8.29033
G1 X125.323 Y154.092 E8.32294
G1 X125.081 Y155.024 E8.37098
G1 X124.895 Y155.549 E8.39876
G1 X124.633 Y156.123 E8.43024
G1 X124.409 Y156.532 E8.45351
G1 X123.984 Y157.189 E8.49255
G1 X123.609 Y157.663 E8.5227
G1 X122.946 Y158.356 E8.57055
G1 X122.412 Y158.804 E8.60532
G1 X121.525 Y159.397 E8.65855
G1 X121.06 Y159.655 E8.68509
G1 X120.531 Y159.893 E8.71403
G1 X119.874 Y160.107 E8.7485
G1 X118.513 Y160.392 E8.81787
G1 X117.806 Y160.46 E8.85331
G1 X117.121 Y160.449 E8.88749
G1 X116.777 Y160.425 E8.90469
G1 X114.435 Y160.134 E9.02243
G1 X108.954 Y159.651 E9.29694
G1 X103.169 Y159.479 E9.58568
G1 X94.185 Y159.518 E10.0339
G1 X88.713 Y159.826 E10.30733
G1 X83.124 Y160.444 E10.58787
G1 X82.611 Y160.459 E10.61347
G1 X81.659 Y160.411 E10.66103
G1 X81.11 Y160.335 E10.68868
G1 X80.508 Y160.198 E10.71948
G1 X80.053 Y160.058 E10.74323
G1 X79.278 Y159.755 E10.78474
G1 X78.838 Y159.543 E10.80911
G1 X78.331 Y159.249 E10.83835
G1 X77.885 Y158.938 E10.86548
G1 X77.129 Y158.307 E10.91461
G1 X76.768 Y157.953 E10.93983
G1 X76.583 Y157.72 E10.95467
G1 X75.786 Y156.613 E11.02273
G1 X75.447 Y156.015 E11.05702
G1 X75.158 Y155.348 E11.09329
G1 X74.95 Y154.671 E11.12862
G1 X74.709 Y153.398 E11.19326
G1 X74.654 Y152.896 E11.21845
G1 X74.657 Y152.634 E11.23153
G1 X74.707 Y151.687 E11.27884
G1 X74.807 Y151.046 E11.3112
G1 X75.048 Y150.125 E11.3587
G1 X75.321 Y149.428 E11.39605
G1 X78.334 Y143.783 E11.71528
G1 X80.681 Y138.792 E11.99044
G1 X81.749 Y136.247 E12.12814
G1 X82.703 Y133.775 E12.26033
G1 X84.475 Y128.544 E12.53588
G1 X85.939 Y123.252 E12.80981
G1 X86.558 Y120.587 E12.94631
G1 X87.087 Y117.958 E13.0801
G1 X87.948 Y112.512 E13.35517
G1 X88.495 Y107.069 E13.6281
G1 X88.734 Y101.602 E13.90111
G1 X88.663 Y96.115 E14.17488
G1 X88.285 Y90.673 E14.44703
G1 X87.595 Y85.228 E14.72086
G1 X86.595 Y79.813 E14.99558
G1 X85.999 Y77.209 E15.12885
G1 X85.312 Y74.553 E15.26572
G1 X83.71 Y69.297 E15.53986
G1 X81.815 Y64.139 E15.81401
G1 X79.633 Y59.104 E16.08778
G1 X78.543 Y56.852 E16.2126
G1 X75.213 Y50.617 E16.56525
G1 X74.944 Y49.935 E16.60183
G1 X74.685 Y48.965 E16.65191
G1 X74.595 Y48.475 E16.67677
G1 X74.544 Y47.992 E16.701
G1 X74.53 Y47.489 E16.72611
G1 X74.58 Y46.533 E16.77387
G1 X74.679 Y45.894 E16.80613
G1 X74.917 Y44.98 E16.85325
G1 X75.083 Y44.502 E16.87849
G1 X75.221 Y44.225 E16.89393
G1 X75.917 Y42.98 E16.96509
G1 F1500 E10.46509
G0 F3600 X77.909 Y44.508
G0 X78.961 Y45.244
G0 X79.648 Y48.272
G0 X80.011 Y49.032
G0 X80.575 Y49.655
G0 X81.299 Y50.089
G0 X82.115 Y50.297
G0 X82.953 Y50.261
G0 X83.177 Y50.183
G0 X84.142 Y49.812
G0 X84.084 Y49.731
;TYPE:WALL-INNER
G1 F1500 E16.96509
G1 F1800 X84.403 Y49.46 E16.98597
G1 X84.677 Y49.15 E17.00661
G1 X84.905 Y48.801 E17.02741
G1 X85.079 Y48.423 E17.04817
G1 X85.197 Y48.025 E17.06888
G1 X85.255 Y47.611 E17.08974
G1 X85.253 Y47.196 E17.11044
G1 X85.189 Y46.784 E17.13125
G1 X85.067 Y46.386 E17.15201
G1 X84.887 Y46.011 E17.17277
G1 X84.655 Y45.665 E17.19355
G1 X84.377 Y45.358 E17.21421
G1 X84.055 Y45.092 E17.23505
G1 X83.696 Y44.878 E17.2559
G1 X83.314 Y44.719 E17.27654
G1 X82.91 Y44.615 E17.29736
G1 X82.496 Y44.573 E17.31812
G1 X82.081 Y44.591 E17.33884
G1 X81.671 Y44.669 E17.35966
G1 X81.279 Y44.806 E17.38038
G1 X80.908 Y44.999 E17.40124
G1 X80.573 Y45.244 E17.42195
G1 X80.276 Y45.534 E17.44266
G1 X80.023 Y45.865 E17.46344
G1 X79.822 Y46.229 E17.48419
G1 X79.676 Y46.617 E17.50487
G1 X79.587 Y47.024 E17.52566
G1 X79.559 Y47.441 E17.54651
G1 X79.593 Y47.856 E17.56728
G1 X79.686 Y48.261 E17.58801
G1 X79.837 Y48.649 E17.60879
G1 X80.044 Y49.01 E17.62955
G1 X80.299 Y49.337 E17.65023
G1 X80.6 Y49.625 E17.67102
G1 X80.942 Y49.866 E17.69189
G1 X81.314 Y50.053 E17.71266
G1 X81.707 Y50.185 E17.73335
G1 X82.119 Y50.258 E17.75422
G1 X82.533 Y50.269 E17.77488
G1 X82.946 Y50.222 E17.79562
G1 X83.348 Y50.113 E17.8164
G1 X83.727 Y49.949 E17.837
G1 X84.084 Y49.731 E17.85787
G0 F3600 X84.142 Y49.812
G0 X98.406 Y48.395
G0 X98.453 Y48.482
G1 F1800 X98.075 Y48.724 E17.88027
G1 X97.734 Y49.013 E17.90257
G1 X97.433 Y49.346 E17.92496
G1 X97.18 Y49.714 E17.94724
G1 X96.978 Y50.113 E17.96955
G1 X96.831 Y50.536 E17.99189
G1 X96.742 Y50.975 E18.01424
G1 X96.713 Y51.422 E18.03659
G1 X96.742 Y51.869 E18.05894
G1 X96.831 Y52.308 E18.08128
G1 X96.978 Y52.731 E18.10363
G1 X97.18 Y53.13 E18.12594
G1 X97.433 Y53.498 E18.14822
G1 X97.734 Y53.831 E18.17061
G1 X98.075 Y54.12 E18.19291
G1 X98.453 Y54.362 E18.2153
G1 X98.859 Y54.549 E18.23761
G1 X99.287 Y54.682 E18.25997
G1 X99.728 Y54.756 E18.28227
G1 X100.175 Y54.771 E18.30459
G1 X100.62 Y54.727 E18.3269
G1 X101.057 Y54.623 E18.34931
G1 X101.474 Y54.462 E18.37161
G1 X101.867 Y54.247 E18.39396
G1 X102.227 Y53.981 E18.41629
G1 X102.549 Y53.67 E18.43862
G1 X102.827 Y53.318 E18.461
G1 X103.055 Y52.933 E18.48333
G1 X103.229 Y52.521 E18.50564
G1 X103.347 Y52.09 E18.52793
G1 X103.407 Y51.646 E18.55028
G1 X103.407 Y51.198 E18.57264
G1 X103.347 Y50.754 E18.59499
G1 X103.229 Y50.323 E18.61728
G1 X103.055 Y49.911 E18.63959
G1 X102.827 Y49.526 E18.66192
G1 X102.549 Y49.174 E18.6843
G1 X102.227 Y48.863 E18.70663
G1 X101.867 Y48.597 E18.72896
G1 X101.474 Y48.381 E18.75133
G1 X101.056 Y48.221 E18.77366
G1 X100.62 Y48.117 E18.79603
G1 X100.175 Y48.073 E18.81834
G1 X99.728 Y48.088 E18.84065
G1 X99.287 Y48.162 E18.86296
G1 X98.859 Y48.295 E18.88532
G1 X98.453 Y48.482 E18.90762
G0 F3600 X98.406 Y48.395
G0 X99.278 Y48.124
G0 X100.176 Y48.034
G0 X101.067 Y48.183
G0 X101.299 Y48.29
G0 X105.556 Y50.454
G0 X105.628 Y50.523
G1 F1800 X105.636 Y50.73 E18.91795
G1 X105.663 Y51.422 E18.9525
G1 X105.642 Y51.916 E18.97717
G1 X105.58 Y52.389 E19.00097
G1 X105.477 Y52.856 E19.02483
G1 X105.336 Y53.312 E19.04864
G1 X105.154 Y53.758 E19.07268
G1 X104.928 Y54.198 E19.09735
G1 X104.683 Y54.589 E19.12037
G1 X104.395 Y54.973 E19.14432
G1 X104.061 Y55.344 E19.16923
G1 X103.332 Y56.029 E19.21913
G1 X102.98 Y56.425 E19.24557
G1 X102.666 Y56.851 E19.27197
G1 X102.391 Y57.303 E19.29837
G1 X102.16 Y57.772 E19.32445
G1 X102.042 Y58.066 E19.34025
G1 X101.969 Y58.272 E19.35116
G1 X101.876 Y58.576 E19.36702
G1 X101.759 Y59.086 E19.39312
G1 X101.688 Y59.61 E19.4195
G1 X101.665 Y60.127 E19.44532
G1 X101.664 Y139.873 E23.42387
G1 X101.687 Y140.389 E23.44964
G1 X101.758 Y140.913 E23.47602
G1 X101.876 Y141.428 E23.50238
G1 X102.04 Y141.931 E23.52877
G1 X102.246 Y142.411 E23.55483
G1 X102.391 Y142.695 E23.57074
G1 X102.499 Y142.883 E23.58156
G1 X102.67 Y143.153 E23.5975
G1 X102.981 Y143.574 E23.62361
G1 X103.332 Y143.969 E23.64998
G1 X104.049 Y144.646 E23.69917
G1 X104.357 Y144.984 E23.72199
G1 X104.638 Y145.35 E23.74501
G1 X104.897 Y145.75 E23.76878
G1 X105.367 Y146.626 E23.81838
G1 X105.675 Y147.086 E23.846
G1 X106.022 Y147.513 E23.87345
G1 X106.409 Y147.907 E23.901
G1 X106.832 Y148.262 E23.92855
G1 X107.285 Y148.575 E23.95602
G1 X107.764 Y148.845 E23.98346
G1 X108.266 Y149.071 E24.01092
G1 X108.788 Y149.248 E24.03842
G1 X109.323 Y149.376 E24.06587
G1 X109.869 Y149.453 E24.09337
G1 X110.406 Y149.478 E24.12019
G1 X114.887 Y149.477 E24.34375
G1 X115.26 Y149.206 E24.36675
G1 X115.406 Y149.109 E24.3755
G1 X115.616 Y148.987 E24.38762
G1 X115.772 Y148.905 E24.39641
G1 X116.149 Y148.739 E24.41696
G1 X116.544 Y148.614 E24.43763
G1 X116.961 Y148.528 E24.45887
G1 X117.379 Y148.484 E24.47984
G1 X117.792 Y148.483 E24.50045
G1 X118.207 Y148.525 E24.52126
G1 X118.617 Y148.61 E24.54215
G1 X119.017 Y148.736 E24.56307
G1 X119.398 Y148.899 E24.58374
G1 X119.776 Y149.11 E24.60534
G1 X120.111 Y149.345 E24.62576
G1 X120.433 Y149.624 E24.64701
G1 X120.716 Y149.927 E24.6677
G1 X120.823 Y150.057 E24.6761
G1 X120.958 Y150.242 E24.68752
G1 X121.06 Y150.398 E24.69682
G1 X121.264 Y150.761 E24.7176
G1 X121.427 Y151.137 E24.73804
G1 X121.555 Y151.546 E24.75942
G1 X121.64 Y151.956 E24.78031
G1 X121.683 Y152.371 E24.80113
G1 X121.683 Y152.787 E24.82188
G1 X121.641 Y153.201 E24.84264
G1 X121.556 Y153.611 E24.86353
G1 X121.428 Y154.019 E24.88487
G1 X121.271 Y154.382 E24.9046
G1 X121.06 Y154.76 E24.9262
G1 X120.821 Y155.102 E24.94701
G1 X120.535 Y155.429 E24.96869
G1 X120.428 Y155.536 E24.97623
G1 X120.245 Y155.701 E24.98853
G1 X119.897 Y155.966 E25.01035
G1 X119.788 Y156.038 E25.01687
G1 X119.407 Y156.252 E25.03867
G1 X119.007 Y156.423 E25.06037
G1 X118.624 Y156.545 E25.08043
G1 X118.208 Y156.63 E25.10161
G1 X117.793 Y156.672 E25.12242
G1 X117.376 Y156.672 E25.14322
G1 X116.962 Y156.629 E25.16399
G1 X116.543 Y156.543 E25.18533
G1 X116.148 Y156.418 E25.206
G1 X115.776 Y156.254 E25.22628
G1 X115.399 Y156.044 E25.24781
G1 X114.882 Y155.679 E25.27938
G1 X85.239 Y155.678 E26.75828
G1 X84.859 Y155.956 E26.78177
G1 X84.729 Y156.042 E26.78955
G1 X84.359 Y156.25 E26.81072
G1 X83.979 Y156.415 E26.83139
G1 X83.575 Y156.544 E26.85255
G1 X83.168 Y156.628 E26.87328
G1 X82.748 Y156.672 E26.89435
G1 X82.335 Y156.673 E26.91496
G1 X81.922 Y156.631 E26.93567
G1 X81.5 Y156.544 E26.95716
G1 X81.119 Y156.424 E26.97709
G1 X80.729 Y156.257 E26.99826
G1 X80.351 Y156.046 E27.01986
G1 X80.014 Y155.809 E27.04041
G1 X79.697 Y155.534 E27.06135
G1 X79.409 Y155.225 E27.08242
G1 X79.306 Y155.101 E27.09046
G1 X79.165 Y154.909 E27.10235
G1 X79.067 Y154.758 E27.11133
G1 X78.868 Y154.405 E27.13155
G1 X78.699 Y154.014 E27.1528
G1 X78.572 Y153.61 E27.17392
G1 X78.487 Y153.2 E27.19481
G1 X78.444 Y152.786 E27.21558
G1 X78.444 Y152.369 E27.23638
G1 X78.486 Y151.957 E27.25705
G1 X78.573 Y151.535 E27.27854
G1 X78.696 Y151.146 E27.2989
G1 X78.857 Y150.77 E27.3193
G1 X79.071 Y150.389 E27.3411
G1 X79.31 Y150.05 E27.3618
G1 X79.589 Y149.729 E27.38302
G1 X79.886 Y149.452 E27.40328
G1 X80.212 Y149.203 E27.42374
G1 X80.365 Y149.103 E27.43286
G1 X80.575 Y148.979 E27.44503
G1 X80.727 Y148.9 E27.45358
G1 X80.942 Y148.803 E27.46534
G1 X81.113 Y148.734 E27.47454
G1 X81.495 Y148.614 E27.49452
G1 X81.922 Y148.526 E27.51627
G1 X82.333 Y148.484 E27.53688
G1 X82.75 Y148.484 E27.55769
G1 X83.164 Y148.527 E27.57845
G1 X83.583 Y148.613 E27.59979
G1 X83.975 Y148.737 E27.6203
G1 X84.352 Y148.901 E27.64081
G1 X84.722 Y149.109 E27.66199
G1 X85.244 Y149.475 E27.6938
G1 X89.683 Y149.497 E27.91526
G1 X90.222 Y149.476 E27.94217
G1 X90.772 Y149.401 E27.96987
G1 X91.311 Y149.275 E27.99748
G1 X91.839 Y149.098 E28.02527
G1 X92.344 Y148.871 E28.05289
G1 X92.827 Y148.599 E28.08054
G1 X93.28 Y148.284 E28.10807
G1 X93.705 Y147.929 E28.1357
G1 X94.095 Y147.533 E28.16343
G1 X94.445 Y147.102 E28.19113
G1 X94.753 Y146.641 E28.21879
G1 X95.234 Y145.744 E28.26957
G1 X95.479 Y145.362 E28.29221
G1 X95.769 Y144.985 E28.31594
G1 X96.066 Y144.657 E28.33801
G1 X96.795 Y143.971 E28.38795
G1 X97.147 Y143.575 E28.41439
G1 X97.461 Y143.149 E28.44079
G1 X97.736 Y142.697 E28.46719
G1 X97.967 Y142.228 E28.49327
G1 X98.085 Y141.934 E28.50907
G1 X98.158 Y141.728 E28.51998
G1 X98.251 Y141.424 E28.53584
G1 X98.368 Y140.914 E28.56194
G1 X98.439 Y140.39 E28.58832
G1 X98.463 Y139.874 E28.6141
G1 X98.464 Y60.126 E32.59274
G1 X98.44 Y59.611 E32.61846
G1 X98.369 Y59.087 E32.64484
G1 X98.251 Y58.572 E32.6712
G1 X98.087 Y58.069 E32.6976
G1 X97.881 Y57.589 E32.72366
G1 X97.736 Y57.305 E32.73956
G1 X97.628 Y57.117 E32.75038
G1 X97.457 Y56.847 E32.76633
G1 X97.146 Y56.426 E32.79244
G1 X96.795 Y56.031 E32.8188
G1 X96.077 Y55.353 E32.86807
G1 X95.769 Y55.016 E32.89085
G1 X95.485 Y54.644 E32.9142
G1 X95.228 Y54.247 E32.93779
G1 X94.76 Y53.374 E32.98721
G1 X94.452 Y52.914 E33.01483
G1 X94.105 Y52.487 E33.04228
G1 X93.718 Y52.093 E33.06983
G1 X93.295 Y51.738 E33.09738
G1 X92.842 Y51.425 E33.12485
G1 X92.363 Y51.155 E33.15228
G1 X91.861 Y50.929 E33.17975
G1 X91.339 Y50.752 E33.20725
G1 X90.804 Y50.624 E33.23469
G1 X90.258 Y50.547 E33.2622
G1 X89.721 Y50.522 E33.28902
G1 X85.113 Y50.523 E33.51892
G1 X84.74 Y50.794 E33.54192
G1 X84.594 Y50.891 E33.55066
G1 X84.384 Y51.013 E33.56278
G1 X84.228 Y51.095 E33.57157
G1 X83.851 Y51.261 E33.59212
G1 X83.456 Y51.386 E33.61279
G1 X83.039 Y51.472 E33.63404
G1 X82.621 Y51.516 E33.65501
G1 X82.208 Y51.517 E33.67561
G1 X81.793 Y51.475 E33.69642
G1 X81.383 Y51.39 E33.71731
G1 X80.983 Y51.264 E33.73823
G1 X80.602 Y51.101 E33.75891
G1 X80.224 Y50.89 E33.78051
G1 X79.887 Y50.653 E33.80106
G1 X79.567 Y50.376 E33.82218
G1 X79.284 Y50.073 E33.84286
G1 X79.177 Y49.943 E33.85126
G1 X79.038 Y49.752 E33.86305
G1 X78.94 Y49.602 E33.87198
G1 X78.736 Y49.239 E33.89276
G1 X78.573 Y48.862 E33.91325
G1 X78.445 Y48.454 E33.93458
G1 X78.36 Y48.044 E33.95547
G1 X78.317 Y47.629 E33.97629
G1 X78.317 Y47.213 E33.99704
G1 X78.359 Y46.799 E34.0178
G1 X78.446 Y46.38 E34.03915
G1 X78.57 Y45.985 E34.05981
G1 X78.73 Y45.618 E34.07978
G1 X78.945 Y45.234 E34.10174
G1 X79.18 Y44.897 E34.12224
G1 X79.464 Y44.571 E34.14381
G1 X79.759 Y44.296 E34.16393
G1 X80.088 Y44.044 E34.1846
G1 X80.223 Y43.956 E34.19264
G1 X80.593 Y43.748 E34.21382
G1 X80.995 Y43.576 E34.23563
G1 X81.376 Y43.455 E34.25558
G1 X81.792 Y43.37 E34.27676
G1 X82.207 Y43.328 E34.29757
G1 X82.624 Y43.328 E34.31837
G1 X83.038 Y43.371 E34.33914
G1 X83.457 Y43.457 E34.36048
G1 X83.845 Y43.58 E34.38079
G1 X84.228 Y43.747 E34.40163
G1 X84.601 Y43.956 E34.42296
G1 X85.118 Y44.321 E34.45454
G1 X114.763 Y44.322 E35.93353
G1 X115.126 Y44.055 E35.95601
G1 X115.28 Y43.953 E35.96523
G1 X115.639 Y43.751 E35.98578
G1 X116.026 Y43.582 E36.00685
G1 X116.417 Y43.458 E36.02731
G1 X116.834 Y43.372 E36.04855
G1 X117.252 Y43.328 E36.06952
G1 X117.665 Y43.327 E36.09013
G1 X118.08 Y43.369 E36.11094
G1 X118.49 Y43.454 E36.13183
G1 X118.89 Y43.58 E36.15275
G1 X119.273 Y43.744 E36.17354
G1 X119.645 Y43.951 E36.19478
