M280 S90 P0 F3000 R
;congrats kahoot, hope you make some new g-codes for this machine
G28
G90
G1 F3000 X51.502098 Y91.297157
G4 P0
M280 S-80 P0 F3000 R
G1 F1200.0 X51.502098 Y91.297157
G1 F1200.0 X50.260497 Y89.928767
G1 F1200.0 X50.260497 Y87.149266
G1 F1200.0 X48.31334 Y87.149266
G1 F1200.0 X48.31334 Y97.152457
G1 F1200.0 X50.260497 Y97.152457
G1 F1200.0 X50.260497 Y92.623531
G1 F1200.0 X54.267135 Y97.152457
G1 F1200.0 X56.820999 Y97.152457
G1 F1200.0 X52.856377 Y92.792688
G1 F1200.0 X56.849257 Y87.149266
G1 F1200.0 X54.408388 Y87.149266
G1 F1200.0 X51.502098 Y91.297157
G4 P0
M280 S90 P0 F3000 R
G1 F3000 X98.04086 Y89.279727
G4 P0
M280 S-80 P0 F3000 R
G1 F1200.0 X98.04086 Y89.279727
G1 F1200.0 X98.479118 Y89.190679
G1 F1200.0 X98.837988 Y88.948217
G1 F1200.0 X99.080454 Y88.589358
G1 F1200.0 X99.169502 Y88.15112
G1 F1200.0 X99.080454 Y87.715017
G1 F1200.0 X98.837988 Y87.360889
G1 F1200.0 X98.479118 Y87.123164
G1 F1200.0 X98.04086 Y87.036272
G1 F1200.0 X97.612991 Y87.123164
G1 F1200.0 X97.263184 Y87.360889
G1 F1200.0 X97.027127 Y87.715017
G1 F1200.0 X96.940511 Y88.15112
G1 F1200.0 X97.027127 Y88.589358
G1 F1200.0 X97.263184 Y88.948217
G1 F1200.0 X97.612991 Y89.190679
G1 F1200.0 X98.04086 Y89.279727
G4 P0
M280 S90 P0 F3000 R
G1 F3000 X98.732305 Y90.196808
G4 P0
M280 S-80 P0 F3000 R
G1 F1200.0 X98.732305 Y90.196808
G1 F1200.0 X97.363562 Y90.196808
G1 F1200.0 X96.912254 Y97.152457
G1 F1200.0 X99.183613 Y97.152457
G1 F1200.0 X98.732305 Y90.196808
G4 P0
M280 S90 P0 F3000 R
G1 F3000 X93.468896 Y94.090804
G4 P0
M280 S-80 P0 F3000 R
G1 F1200.0 X93.468896 Y94.090804
G1 F1200.0 X94.865543 Y94.090804
G1 F1200.0 X94.865543 Y92.425764
G1 F1200.0 X93.468896 Y92.425764
G1 F1200.0 X93.468896 Y89.51951
G1 F1200.0 X93.521357 Y89.137917
G1 F1200.0 X93.676977 Y88.889951
G1 F1200.0 X93.933105 Y88.755744
G1 F1200.0 X94.287093 Y88.715423
G1 F1200.0 X94.865543 Y88.771903
G1 F1200.0 X94.865543 Y87.219893
G1 F1200.0 X94.479423 Y87.108653
G1 F1200.0 X93.807527 Y87.050383
G1 F1200.0 X92.892142 Y87.197016
G1 F1200.0 X92.199028 Y87.620119
G1 F1200.0 X91.7599 Y88.294497
G1 F1200.0 X91.606476 Y89.194954
G1 F1200.0 X91.606476 Y92.425764
G1 F1200.0 X90.350728 Y92.425764
G1 F1200.0 X90.350728 Y94.090804
G1 F1200.0 X90.703506 Y94.090804
G1 F1200.0 X91.180653 Y94.175436
G1 F1200.0 X91.514908 Y94.408185
G1 F1200.0 X91.711573 Y94.757331
G1 F1200.0 X91.77595 Y95.191153
G1 F1200.0 X91.77595 Y96.164749
G1 F1200.0 X93.468896 Y96.164749
G1 F1200.0 X93.468896 Y94.090804
G4 P0
M280 S90 P0 F3000 R
G1 F3000 X87.541241 Y90.619859
G4 P0
M280 S-80 P0 F3000 R
G1 F1200.0 X87.541241 Y90.619859
G1 F1200.0 X87.394653 Y91.482113
G1 F1200.0 X87.003378 Y92.099651
G1 F1200.0 X86.440151 Y92.471147
G1 F1200.0 X85.777705 Y92.595273
G1 F1200.0 X85.115259 Y92.471147
G1 F1200.0 X84.552032 Y92.099651
G1 F1200.0 X84.160757 Y91.482113
G1 F1200.0 X84.014169 Y90.619859
G1 F1200.0 X84.160757 Y89.763761
G1 F1200.0 X84.552032 Y89.145667
G1 F1200.0 X85.115259 Y88.770903
G1 F1200.0 X85.777705 Y88.644797
G1 F1200.0 X86.440151 Y88.768918
G1 F1200.0 X87.003378 Y89.140375
G1 F1200.0 X87.394653 Y89.757808
G1 F1200.0 X87.541241 Y90.619859
G4 P0
M280 S90 P0 F3000 R
G1 F3000 X89.417807 Y90.619859
G4 P0
M280 S-80 P0 F3000 R
G1 F1200.0 X89.417807 Y90.619859
G1 F1200.0 X89.346461 Y89.850069
G1 F1200.0 X89.14069 Y89.145889
G1 F1200.0 X88.812897 Y88.518731
G1 F1200.0 X88.375486 Y87.98001
G1 F1200.0 X87.840858 Y87.541137
G1 F1200.0 X87.221417 Y87.213525
G1 F1200.0 X86.529565 Y87.008589
G1 F1200.0 X85.777705 Y86.937741
G1 F1200.0 X85.025847 Y87.008589
G1 F1200.0 X84.333999 Y87.213525
G1 F1200.0 X83.714563 Y87.541137
G1 F1200.0 X83.179942 Y87.98001
G1 F1200.0 X82.742537 Y88.518731
G1 F1200.0 X82.41475 Y89.145889
G1 F1200.0 X82.208983 Y89.850069
G1 F1200.0 X82.137638 Y90.619859
G1 F1200.0 X82.208983 Y91.393817
G1 F1200.0 X82.41475 Y92.099986
G1 F1200.0 X82.742537 Y92.727454
G1 F1200.0 X83.179942 Y93.265309
G1 F1200.0 X83.714563 Y93.702636
G1 F1200.0 X84.333999 Y94.028524
G1 F1200.0 X85.025847 Y94.232059
G1 F1200.0 X85.777705 Y94.30233
G1 F1200.0 X86.529565 Y94.232059
G1 F1200.0 X87.221417 Y94.028524
G1 F1200.0 X87.840858 Y93.702636
G1 F1200.0 X88.375486 Y93.265309
G1 F1200.0 X88.812897 Y92.727454
G1 F1200.0 X89.14069 Y92.099986
G1 F1200.0 X89.346461 Y91.393817
G1 F1200.0 X89.417807 Y90.619859
G4 P0
M280 S90 P0 F3000 R
G1 F3000 X79.018095 Y90.619859
G4 P0
M280 S-80 P0 F3000 R
G1 F1200.0 X79.018095 Y90.619859
G1 F1200.0 X78.871507 Y91.482113
G1 F1200.0 X78.480232 Y92.099651
G1 F1200.0 X77.917005 Y92.471147
G1 F1200.0 X77.254559 Y92.595273
G1 F1200.0 X76.592092 Y92.471147
G1 F1200.0 X76.028854 Y92.099651
G1 F1200.0 X75.637576 Y91.482113
G1 F1200.0 X75.490987 Y90.619859
G1 F1200.0 X75.637576 Y89.763761
G1 F1200.0 X76.028854 Y89.145667
G1 F1200.0 X76.592092 Y88.770903
G1 F1200.0 X77.254559 Y88.644797
G1 F1200.0 X77.917005 Y88.768918
G1 F1200.0 X78.480232 Y89.140375
G1 F1200.0 X78.871507 Y89.757808
G1 F1200.0 X79.018095 Y90.619859
G4 P0
M280 S90 P0 F3000 R
G1 F3000 X80.894626 Y90.619859
G4 P0
M280 S-80 P0 F3000 R
G1 F1200.0 X80.894626 Y90.619859
G1 F1200.0 X80.823281 Y89.850069
G1 F1200.0 X80.617514 Y89.145889
G1 F1200.0 X80.289727 Y88.518731
G1 F1200.0 X79.852322 Y87.98001
G1 F1200.0 X79.3177 Y87.541137
G1 F1200.0 X78.698265 Y87.213525
G1 F1200.0 X78.006417 Y87.008589
G1 F1200.0 X77.254559 Y86.937741
G1 F1200.0 X76.502699 Y87.008589
G1 F1200.0 X75.810847 Y87.213525
G1 F1200.0 X75.191406 Y87.541137
G1 F1200.0 X74.656778 Y87.98001
G1 F1200.0 X74.219366 Y88.518731
G1 F1200.0 X73.891574 Y89.145889
G1 F1200.0 X73.685803 Y89.850069
G1 F1200.0 X73.614456 Y90.619859
G1 F1200.0 X73.685803 Y91.393817
G1 F1200.0 X73.891574 Y92.099986
G1 F1200.0 X74.219366 Y92.727454
G1 F1200.0 X74.656778 Y93.265309
G1 F1200.0 X75.191406 Y93.702636
G1 F1200.0 X75.810847 Y94.028524
G1 F1200.0 X76.502699 Y94.232059
G1 F1200.0 X77.254559 Y94.30233
G1 F1200.0 X78.006417 Y94.232059
G1 F1200.0 X78.698265 Y94.028524
G1 F1200.0 X79.3177 Y93.702636
G1 F1200.0 X79.852322 Y93.265309
G1 F1200.0 X80.289727 Y92.727454
G1 F1200.0 X80.617514 Y92.099986
G1 F1200.0 X80.823281 Y91.393817
G1 F1200.0 X80.894626 Y90.619859
G4 P0
M280 S90 P0 F3000 R
G1 F3000 X67.489776 Y87.149266
G4 P0
M280 S-80 P0 F3000 R
G1 F1200.0 X67.489776 Y87.149266
G1 F1200.0 X65.613562 Y87.149266
G1 F1200.0 X65.613562 Y97.363982
G1 F1200.0 X67.489776 Y97.363982
G1 F1200.0 X67.489776 Y93.512354
G1 F1200.0 X67.880253 Y93.857532
G1 F1200.0 X68.348706 Y94.094244
G1 F1200.0 X69.366306 Y94.274072
G1 F1200.0 X69.983583 Y94.218352
G1 F1200.0 X70.513749 Y94.058468
G1 F1200.0 X70.958286 Y93.805332
G1 F1200.0 X71.318676 Y93.469858
G1 F1200.0 X71.596399 Y93.062958
G1 F1200.0 X71.792939 Y92.595544
G1 F1200.0 X71.948393 Y91.522829
G1 F1200.0 X71.948393 Y87.149266
G1 F1200.0 X70.071862 Y87.149266
G1 F1200.0 X70.071862 Y91.198626
G1 F1200.0 X69.998217 Y91.741965
G1 F1200.0 X69.768477 Y92.180843
G1 F1200.0 X69.369438 Y92.474247
G1 F1200.0 X68.787892 Y92.581162
G1 F1200.0 X68.257749 Y92.476667
G1 F1200.0 X67.858481 Y92.189623
G1 F1200.0 X67.59939 Y91.759691
G1 F1200.0 X67.489776 Y91.226531
G1 F1200.0 X67.489776 Y87.149266
G4 P0
M280 S90 P0 F3000 R
G1 F3000 X61.8877 Y89.957025
G4 P0
M280 S-80 P0 F3000 R
G1 F1200.0 X61.8877 Y89.957025
G1 F1200.0 X61.8877 Y90.267434
G1 F1200.0 X60.321543 Y90.027298
G1 F1200.0 X59.711436 Y89.764739
G1 F1200.0 X59.528006 Y89.50567
G1 F1200.0 X59.460977 Y89.152586
G1 F1200.0 X59.516748 Y88.854425
G1 F1200.0 X59.684946 Y88.59719
G1 F1200.0 X59.966903 Y88.41663
G1 F1200.0 X60.363947 Y88.348499
G1 F1200.0 X60.935289 Y88.427215
G1 F1200.0 X61.422051 Y88.692453
G1 F1200.0 X61.760699 Y89.187845
G1 F1200.0 X61.8877 Y89.957025
G4 P0
M280 S90 P0 F3000 R
G1 F3000 X59.658391 Y91.142146
G4 P0
M280 S-80 P0 F3000 R
G1 F1200.0 X59.658391 Y91.142146
G1 F1200.0 X61.365765 Y91.396041
G1 F1200.0 X61.77478 Y91.574154
G1 F1200.0 X61.8877 Y91.889718
G1 F1200.0 X61.81582 Y92.239226
G1 F1200.0 X61.59844 Y92.526464
G1 F1200.0 X61.232945 Y92.721072
G1 F1200.0 X60.716724 Y92.792688
G1 F1200.0 X60.17208 Y92.701656
G1 F1200.0 X59.767748 Y92.455886
G1 F1200.0 X59.50631 Y92.096366
G1 F1200.0 X59.390351 Y91.664081
G1 F1200.0 X57.725663 Y92.016859
G1 F1200.0 X57.976439 Y92.83222
G1 F1200.0 X58.557967 Y93.566934
G1 F1200.0 X59.467572 Y94.097977
G1 F1200.0 X60.044567 Y94.248679
G1 F1200.0 X60.702578 Y94.30233
G1 F1200.0 X61.464164 Y94.246252
G1 F1200.0 X62.102776 Y94.086507
G1 F1200.0 X62.625018 Y93.835828
G1 F1200.0 X63.037495 Y93.506948
G1 F1200.0 X63.346813 Y93.1126
G1 F1200.0 X63.559577 Y92.665518
G1 F1200.0 X63.721862 Y91.664081
G1 F1200.0 X63.721862 Y88.249651
G1 F1200.0 X63.806282 Y87.149266
G1 F1200.0 X62.085114 Y87.149266
G1 F1200.0 X62.014488 Y87.98161
G1 F1200.0 X61.691009 Y87.588598
G1 F1200.0 X61.245746 Y87.260409
G1 F1200.0 X60.673423 Y87.035381
G1 F1200.0 X59.968765 Y86.951852
G1 F1200.0 X58.971251 Y87.125314
G1 F1200.0 X58.221069 Y87.588426
G1 F1200.0 X57.748646 Y88.255274
G1 F1200.0 X57.584411 Y89.039944
G1 F1200.0 X57.745786 Y89.868376
G1 F1200.0 X58.187577 Y90.493079
G1 F1200.0 X58.84628 Y90.916765
G1 F1200.0 X59.658391 Y91.142146
G4 P0
M280 S90 P0 F3000 R
G1 F3000 X106.783822 Y195.488239
G4 P0
M280 S-80 P0 F3000 R
G1 F1200.0 X106.783822 Y195.488239
G1 F1200.0 X107.561472 Y195.404486
G1 F1200.0 X108.242653 Y195.166003
G1 F1200.0 X108.82514 Y194.791952
G1 F1200.0 X109.306708 Y194.301499
G1 F1200.0 X109.685134 Y193.713807
G1 F1200.0 X109.958192 Y193.048038
G1 F1200.0 X110.123659 Y192.323358
G1 F1200.0 X110.179309 Y191.55893
G1 F1200.0 X110.025819 Y189.860963
G1 F1200.0 X109.599733 Y188.413495
G1 F1200.0 X108.952626 Y187.204739
G1 F1200.0 X108.136073 Y186.222906
G1 F1200.0 X107.201647 Y185.456207
G1 F1200.0 X106.200924 Y184.892854
G1 F1200.0 X105.185479 Y184.521058
G1 F1200.0 X104.206887 Y184.329031
G1 F1200.0 X104.206887 Y186.560774
G1 F1200.0 X105.259236 Y186.932112
G1 F1200.0 X106.261685 Y187.645288
G1 F1200.0 X106.684273 Y188.119006
G1 F1200.0 X107.022477 Y188.664911
G1 F1200.0 X107.252327 Y189.278581
G1 F1200.0 X107.349854 Y189.95559
G1 F1200.0 X106.992222 Y189.798586
G1 F1200.0 X106.469991 Y189.735774
G1 F1200.0 X105.852101 Y189.792854
G1 F1200.0 X105.298677 Y189.956732
G1 F1200.0 X104.815241 Y190.21637
G1 F1200.0 X104.407317 Y190.560727
G1 F1200.0 X104.080429 Y190.978765
G1 F1200.0 X103.840099 Y191.459442
G1 F1200.0 X103.691851 Y191.99172
G1 F1200.0 X103.641207 Y192.564558
G1 F1200.0 X103.702765 Y193.168517
G1 F1200.0 X103.88032 Y193.724239
G1 F1200.0 X104.163198 Y194.22177
G1 F1200.0 X104.540725 Y194.651159
G1 F1200.0 X105.002225 Y195.002453
G1 F1200.0 X105.537025 Y195.265699
G1 F1200.0 X106.134449 Y195.430945
G1 F1200.0 X106.783822 Y195.488239
G4 P0
M280 S90 P0 F3000 R
G1 F3000 X74.286604 Y131.473184
G4 P0
M280 S-80 P0 F3000 R
G1 F1200.0 X74.286604 Y131.473184
G1 F1200.0 X74.286604 Y129.550298
G1 F1200.0 X70.495795 Y129.550298
G1 F1200.0 X70.495795 Y125.508523
G1 F1200.0 X66.455361 Y125.508523
G1 F1200.0 X66.455361 Y121.469147
G1 F1200.0 X62.415314 Y121.469147
G1 F1200.0 X62.416866 Y117.429418
G1 F1200.0 X56.706946 Y117.429418
G1 F1200.0 X56.706946 Y119.340239
G1 F1200.0 X60.506046 Y119.340239
G1 F1200.0 X60.506046 Y123.379791
G1 F1200.0 X64.545422 Y123.379791
G1 F1200.0 X64.545422 Y127.41952
G1 F1200.0 X68.583916 Y127.41952
G1 F1200.0 X68.583916 Y131.45872
G1 F1200.0 X74.286604 Y131.473184
G4 P0
M280 S90 P0 F3000 R
G1 F3000 X60.13517 Y196.070781
G4 P0
M280 S-80 P0 F3000 R
G1 F1200.0 X60.13517 Y196.070781
G1 F1200.0 X62.903841 Y193.302499
G1 F1200.0 X61.738863 Y192.137521
G1 F1200.0 X58.970898 Y194.905838
G1 F1200.0 X60.13517 Y196.070781
G4 P0
M280 S90 P0 F3000 R
G1 F3000 X61.738863 Y187.534194
G4 P0
M280 S-80 P0 F3000 R
G1 F1200.0 X61.738863 Y187.534194
G1 F1200.0 X62.903841 Y186.369569
G1 F1200.0 X60.13517 Y183.600933
G1 F1200.0 X58.970898 Y184.765523
G1 F1200.0 X61.738863 Y187.534194
G4 P0
M280 S90 P0 F3000 R
G1 F3000 X68.671934 Y187.534194
G4 P0
M280 S-80 P0 F3000 R
G1 F1200.0 X68.671934 Y187.534194
G1 F1200.0 X71.440428 Y184.765523
G1 F1200.0 X70.275485 Y183.600933
G1 F1200.0 X67.506638 Y186.369569
G1 F1200.0 X68.671934 Y187.534194
G4 P0
M280 S90 P0 F3000 R
G1 F3000 X70.275485 Y196.070781
G4 P0
M280 S-80 P0 F3000 R
G1 F1200.0 X70.275485 Y196.070781
G1 F1200.0 X71.440428 Y194.905838
G1 F1200.0 X68.671934 Y192.137521
G1 F1200.0 X67.506638 Y193.302499
G1 F1200.0 X70.275485 Y196.070781
G4 P0
M280 S90 P0 F3000 R
G1 F3000 X61.126829 Y190.659241
G4 P0
M280 S-80 P0 F3000 R
G1 F1200.0 X61.126829 Y190.659241
G1 F1200.0 X61.126829 Y189.012121
G1 F1200.0 X57.211489 Y189.012121
G1 F1200.0 X57.211489 Y190.659241
G1 F1200.0 X61.126829 Y190.659241
G4 P0
M280 S90 P0 F3000 R
G1 F3000 X66.028711 Y185.757041
G4 P0
M280 S-80 P0 F3000 R
G1 F1200.0 X66.028711 Y185.757041
G1 F1200.0 X66.028711 Y181.841842
G1 F1200.0 X64.381944 Y181.841842
G1 F1200.0 X64.381944 Y185.757041
G1 F1200.0 X66.028711 Y185.757041
G4 P0
M280 S90 P0 F3000 R
G1 F3000 X73.199307 Y190.659241
G4 P0
M280 S-80 P0 F3000 R
G1 F1200.0 X73.199307 Y190.659241
G1 F1200.0 X73.199307 Y189.012121
G1 F1200.0 X69.283968 Y189.012121
G1 F1200.0 X69.283968 Y190.659241
G1 F1200.0 X73.199307 Y190.659241
G4 P0
M280 S90 P0 F3000 R
G1 F3000 X66.028711 Y197.829696
G4 P0
M280 S-80 P0 F3000 R
G1 F1200.0 X66.028711 Y197.829696
G1 F1200.0 X66.028711 Y193.914145
G1 F1200.0 X64.381944 Y193.914145
G1 F1200.0 X64.381944 Y197.829696
G1 F1200.0 X66.028711 Y197.829696
G4 P0
M280 S90 P0 F3000 R
G1 F3000 X65.205151 Y192.285334
G4 P0
M280 S-80 P0 F3000 R
G1 F1200.0 X65.205151 Y192.285334
G1 F1200.0 X66.158772 Y192.092781
G1 F1200.0 X66.937348 Y191.567736
G1 F1200.0 X67.462194 Y190.789121
G1 F1200.0 X67.654629 Y189.835857
G1 F1200.0 X67.462194 Y188.882371
G1 F1200.0 X66.937348 Y188.10378
G1 F1200.0 X66.158772 Y187.578859
G1 F1200.0 X65.205151 Y187.38638
G1 F1200.0 X64.252119 Y187.578859
G1 F1200.0 X63.47367 Y188.10378
G1 F1200.0 X62.948724 Y188.882371
G1 F1200.0 X62.756203 Y189.835857
G1 F1200.0 X62.948724 Y190.789121
G1 F1200.0 X63.47367 Y191.567736
G1 F1200.0 X64.252119 Y192.092781
G1 F1200.0 X65.205151 Y192.285334
G4 P0
M280 S90 P0 F3000 R
G1 F3000 X109.891654 Y172.981758
G4 P0
M280 S-80 P0 F3000 R
G1 F1200.0 X109.891654 Y172.981758
G1 F1200.0 X114.292415 Y169.233318
G1 F1200.0 X109.891654 Y165.451998
G1 F1200.0 X109.891654 Y168.127112
G1 F1200.0 X103.141004 Y168.127112
G1 F1200.0 X102.600525 Y168.048443
G1 F1200.0 X102.173648 Y167.82965
G1 F1200.0 X101.893343 Y167.496557
G1 F1200.0 X101.792581 Y167.074988
G1 F1200.0 X101.913919 Y166.583576
G1 F1200.0 X102.230753 Y166.258422
G1 F1200.0 X102.672319 Y166.078643
G1 F1200.0 X103.16785 Y166.023357
G1 F1200.0 X106.133759 Y166.023357
G1 F1200.0 X106.133759 Y163.799199
G1 F1200.0 X103.087593 Y163.799199
G1 F1200.0 X102.342344 Y163.862097
G1 F1200.0 X101.661071 Y164.044098
G1 F1200.0 X101.054682 Y164.335161
G1 F1200.0 X100.534086 Y164.725245
G1 F1200.0 X100.110191 Y165.204311
G1 F1200.0 X99.793903 Y165.762317
G1 F1200.0 X99.596131 Y166.389222
G1 F1200.0 X99.527783 Y167.074988
G1 F1200.0 X99.596131 Y167.763555
G1 F1200.0 X99.793903 Y168.393041
G1 F1200.0 X100.110191 Y168.953357
G1 F1200.0 X100.534086 Y169.434418
G1 F1200.0 X101.054682 Y169.826136
G1 F1200.0 X101.661071 Y170.118424
G1 F1200.0 X102.342344 Y170.301193
G1 F1200.0 X103.087593 Y170.364358
G1 F1200.0 X109.891654 Y170.364358
G1 F1200.0 X109.891654 Y172.981758
G4 P0
M280 S90 P0 F3000 R
G1 F3000 X91.490729 Y194.896349
G4 P0
M280 S-80 P0 F3000 R
G1 F1200.0 X91.490729 Y194.896349
G1 F1200.0 X94.897928 Y189.994678
G1 F1200.0 X91.515847 Y185.215985
G1 F1200.0 X87.939845 Y185.215985
G1 F1200.0 X91.34602 Y189.97023
G1 F1200.0 X87.939845 Y194.896349
G1 F1200.0 X91.490729 Y194.896349
G4 P0
M280 S90 P0 F3000 R
G1 F3000 X85.010484 Y194.896349
G4 P0
M280 S-80 P0 F3000 R
G1 F1200.0 X85.010484 Y194.896349
G1 F1200.0 X88.417329 Y189.994678
G1 F1200.0 X85.035284 Y185.215985
G1 F1200.0 X81.460305 Y185.215985
G1 F1200.0 X84.866127 Y189.97023
G1 F1200.0 X81.460305 Y194.896349
G1 F1200.0 X85.010484 Y194.896349
G4 P0
M280 S90 P0 F3000 R
G1 F3000 X122.380834 Y174.198383
G4 P0
M280 S-80 P0 F3000 R
G1 F1200.0 X122.380834 Y174.198383
G1 F1200.0 X123.486175 Y173.424879
G1 F1200.0 X124.318417 Y172.453821
G1 F1200.0 X124.843061 Y171.3266
G1 F1200.0 X125.025609 Y170.084606
G1 F1200.0 X124.853956 Y168.719638
G1 F1200.0 X124.314902 Y167.31784
G1 F1200.0 X123.678597 Y166.142208
G1 F1200.0 X123.424518 Y165.518016
G1 F1200.0 X123.335803 Y164.893692
G1 F1200.0 X123.40625 Y164.302984
G1 F1200.0 X123.623683 Y163.74903
G1 F1200.0 X123.99724 Y163.241001
G1 F1200.0 X124.536059 Y162.788068
G1 F1200.0 X122.919631 Y160.828846
G1 F1200.0 X121.78307 Y161.620941
G1 F1200.0 X120.954412 Y162.610382
G1 F1200.0 X120.447249 Y163.755888
G1 F1200.0 X120.275174 Y165.016177
G1 F1200.0 X120.449627 Y166.356913
G1 F1200.0 X121.009339 Y167.734188
G1 F1200.0 X121.645962 Y168.909644
G1 F1200.0 X121.888127 Y169.533924
G1 F1200.0 X121.964662 Y170.158336
G1 F1200.0 X121.887721 Y170.720196
G1 F1200.0 X121.661529 Y171.256891
G1 F1200.0 X121.29303 Y171.75237
G1 F1200.0 X120.789171 Y172.190583
G1 F1200.0 X122.380834 Y174.198383
G4 P0
M280 S90 P0 F3000 R
G1 F3000 X128.69224 Y174.198383
G4 P0
M280 S-80 P0 F3000 R
G1 F1200.0 X128.69224 Y174.198383
G1 F1200.0 X129.832582 Y173.406486
G1 F1200.0 X130.669903 Y172.41711
G1 F1200.0 X131.185795 Y171.271539
G1 F1200.0 X131.36185 Y170.011051
G1 F1200.0 X131.190193 Y168.673561
G1 F1200.0 X130.651109 Y167.31784
G1 F1200.0 X130.014451 Y166.142208
G1 F1200.0 X129.760504 Y165.518016
G1 F1200.0 X129.671657 Y164.893692
G1 F1200.0 X129.73824 Y164.309954
G1 F1200.0 X129.947225 Y163.749149
G1 F1200.0 X130.312466 Y163.234209
G1 F1200.0 X130.847818 Y162.788068
G1 F1200.0 X129.255837 Y160.828846
G1 F1200.0 X128.119014 Y161.617093
G1 F1200.0 X127.287589 Y162.59807
G1 F1200.0 X126.773062 Y163.735112
G1 F1200.0 X126.586932 Y164.991553
G1 F1200.0 X126.773358 Y166.344456
G1 F1200.0 X127.345546 Y167.734188
G1 F1200.0 X127.982204 Y168.909644
G1 F1200.0 X128.22391 Y169.530846
G1 F1200.0 X128.300515 Y170.133712
G1 F1200.0 X128.223203 Y170.709808
G1 F1200.0 X127.994384 Y171.253813
G1 F1200.0 X127.618734 Y171.751985
G1 F1200.0 X127.10093 Y172.190583
G1 F1200.0 X128.69224 Y174.198383
G4 P0
M280 S90 P0 F3000 R
G1 F3000 X52.029042 Y153.24945
G4 P0
M280 S-80 P0 F3000 R
G1 F1200.0 X52.029042 Y153.24945
G1 F1200.0 X52.029042 Y143.019248
G1 F1200.0 X48.272347 Y146.804729
G1 F1200.0 X36.979472 Y135.541135
G1 F1200.0 X34.291799 Y138.200233
G1 F1200.0 X45.584463 Y149.492402
G1 F1200.0 X41.856201 Y153.24945
G1 F1200.0 X52.029042 Y153.24945
G4 P0
M280 S90 P0 F3000 R
G1 F3000 X88.181709 Y173.069776
G4 P0
M280 S-80 P0 F3000 R
G1 F1200.0 X88.181709 Y173.069776
G1 F1200.0 X88.181709 Y169.652947
G1 F1200.0 X91.348419 Y170.679742
G1 F1200.0 X92.405376 Y167.625145
G1 F1200.0 X89.208328 Y166.568893
G1 F1200.0 X91.154109 Y163.874658
G1 F1200.0 X88.543765 Y161.957452
G1 F1200.0 X86.51427 Y164.679768
G1 F1200.0 X84.514725 Y161.957452
G1 F1200.0 X81.901982 Y163.874658
G1 F1200.0 X83.847764 Y166.568893
G1 F1200.0 X80.653114 Y167.625145
G1 F1200.0 X81.679768 Y170.679742
G1 F1200.0 X84.847536 Y169.652947
G1 F1200.0 X84.847536 Y173.069776
G1 F1200.0 X88.181709 Y173.069776
G4 P0
M280 S90 P0 F3000 R
G1 F3000 X133.092649 Y154.016671
G4 P0
M280 S-80 P0 F3000 R
G1 F1200.0 X133.092649 Y154.016671
G1 F1200.0 X123.11567 Y117.364154
G1 F1200.0 X114.68862 Y117.364154
G1 F1200.0 X106.882706 Y141.661018
G1 F1200.0 X99.02444 Y117.364154
G1 F1200.0 X90.443403 Y117.364154
G1 F1200.0 X80.466424 Y154.016671
G1 F1200.0 X89.15079 Y154.016671
G1 F1200.0 X95.199341 Y130.546613
G1 F1200.0 X102.79888 Y154.016671
G1 F1200.0 X111.173578 Y154.016671
G1 F1200.0 X118.772411 Y130.49479
G1 F1200.0 X124.717634 Y154.016671
G1 F1200.0 X133.092649 Y154.016671
G4 P0
M280 S90 P0 F3000 R
G1 F3000 X69.231439 Y164.018662
G4 P0
M280 S-80 P0 F3000 R
G1 F1200.0 X69.231439 Y164.018662
G1 F1200.0 X69.231439 Y138.325821
G1 F1200.0 X61.373702 Y138.325821
G1 F1200.0 X61.373702 Y164.018662
G1 F1200.0 X69.231439 Y164.018662
G4 P0
M280 S90 P0 F3000 R
G1 F3000 X65.250801 Y176.477327
G4 P0
M280 S-80 P0 F3000 R
G1 F1200.0 X65.250801 Y176.477327
G1 F1200.0 X66.192758 Y176.383524
G1 F1200.0 X67.068116 Y176.11464
G1 F1200.0 X67.858691 Y175.689459
G1 F1200.0 X68.546301 Y175.126766
G1 F1200.0 X69.112761 Y174.445346
G1 F1200.0 X69.539888 Y173.663984
G1 F1200.0 X69.809499 Y172.801466
G1 F1200.0 X69.903411 Y171.876576
G1 F1200.0 X69.809499 Y170.951511
G1 F1200.0 X69.539888 Y170.088861
G1 F1200.0 X69.112761 Y169.307405
G1 F1200.0 X68.546301 Y168.625922
G1 F1200.0 X67.858691 Y168.063191
G1 F1200.0 X67.068116 Y167.63799
G1 F1200.0 X66.192758 Y167.369099
G1 F1200.0 X65.250801 Y167.275295
G1 F1200.0 X64.342911 Y167.369099
G1 F1200.0 X63.493169 Y167.63799
G1 F1200.0 X62.720961 Y168.063191
G1 F1200.0 X62.045678 Y168.625922
G1 F1200.0 X61.486707 Y169.307405
G1 F1200.0 X61.063437 Y170.088861
G1 F1200.0 X60.795257 Y170.951511
G1 F1200.0 X60.701555 Y171.876576
G1 F1200.0 X60.795257 Y172.801466
G1 F1200.0 X61.063437 Y173.663984
G1 F1200.0 X61.486707 Y174.445346
G1 F1200.0 X62.045678 Y175.126766
G1 F1200.0 X62.720961 Y175.689459
G1 F1200.0 X63.493169 Y176.11464
G1 F1200.0 X64.342911 Y176.383524
G1 F1200.0 X65.250801 Y176.477327
G4 P0
M280 S90 P0 F3000 R
G1 F3000 X32.979219 Y167.798958
G4 P0
M280 S-80 P0 F3000 R
G1 F1200.0 X32.979219 Y167.798958
G1 F1200.0 X34.887034 Y167.960497
G1 F1200.0 X36.764544 Y168.451578
G1 F1200.0 X38.542687 Y169.281899
G1 F1200.0 X39.372913 Y169.827304
G1 F1200.0 X40.152399 Y170.461156
G1 F1200.0 X40.872512 Y171.184667
G1 F1200.0 X41.524618 Y171.999048
G1 F1200.0 X42.100086 Y172.905513
G1 F1200.0 X42.590281 Y173.905272
G1 F1200.0 X42.986572 Y174.999539
G1 F1200.0 X43.280325 Y176.189525
G1 F1200.0 X43.462908 Y177.476443
G1 F1200.0 X43.525687 Y178.861505
G1 F1200.0 X43.462908 Y180.247213
G1 F1200.0 X43.280325 Y181.535836
G1 F1200.0 X42.986572 Y182.728433
G1 F1200.0 X42.590281 Y183.826067
G1 F1200.0 X42.100086 Y184.829796
G1 F1200.0 X41.524618 Y185.740681
G1 F1200.0 X40.872512 Y186.559783
G1 F1200.0 X40.152399 Y187.288162
G1 F1200.0 X39.372913 Y187.926878
G1 F1200.0 X38.542687 Y188.476992
G1 F1200.0 X36.764544 Y189.315654
G1 F1200.0 X34.887034 Y189.81263
G1 F1200.0 X32.979219 Y189.976404
G1 F1200.0 X31.054667 Y189.81263
G1 F1200.0 X29.164551 Y189.315654
G1 F1200.0 X27.377348 Y188.476992
G1 F1200.0 X26.543738 Y187.926878
G1 F1200.0 X25.761535 Y187.288162
G1 F1200.0 X25.0393 Y186.559783
G1 F1200.0 X24.385591 Y185.740681
G1 F1200.0 X23.808968 Y184.829796
G1 F1200.0 X23.317992 Y183.826067
G1 F1200.0 X22.921221 Y182.728433
G1 F1200.0 X22.627215 Y181.535836
G1 F1200.0 X22.444535 Y180.247213
G1 F1200.0 X22.381739 Y178.861505
G1 F1200.0 X22.444535 Y177.476443
G1 F1200.0 X22.627215 Y176.189525
G1 F1200.0 X22.921221 Y174.999539
G1 F1200.0 X23.317992 Y173.905272
G1 F1200.0 X23.808968 Y172.905513
G1 F1200.0 X24.385591 Y171.999048
G1 F1200.0 X25.0393 Y171.184667
G1 F1200.0 X25.761535 Y170.461156
G1 F1200.0 X26.543738 Y169.827304
G1 F1200.0 X27.377348 Y169.281899
G1 F1200.0 X29.164551 Y168.451578
G1 F1200.0 X31.054667 Y167.960497
G1 F1200.0 X32.979219 Y167.798958
G4 P0
M280 S90 P0 F3000 R
G1 F3000 X32.979219 Y197.937328
G4 P0
M280 S-80 P0 F3000 R
G1 F1200.0 X32.979219 Y197.937328
G1 F1200.0 X34.888267 Y197.850307
G1 F1200.0 X36.750428 Y197.592524
G1 F1200.0 X38.555175 Y197.168903
G1 F1200.0 X40.291984 Y196.584364
G1 F1200.0 X41.95033 Y195.84383
G1 F1200.0 X43.519689 Y194.952223
G1 F1200.0 X44.989536 Y193.914465
G1 F1200.0 X46.349347 Y192.735479
G1 F1200.0 X47.588596 Y191.420186
G1 F1200.0 X48.696758 Y189.973508
G1 F1200.0 X49.66331 Y188.400367
G1 F1200.0 X50.477725 Y186.705686
G1 F1200.0 X51.129481 Y184.894387
G1 F1200.0 X51.608051 Y182.971391
G1 F1200.0 X51.902911 Y180.941622
G1 F1200.0 X52.003537 Y178.809999
G1 F1200.0 X51.902911 Y176.687473
G1 F1200.0 X51.608051 Y174.665659
G1 F1200.0 X51.129481 Y172.749556
G1 F1200.0 X50.477725 Y170.944163
G1 F1200.0 X49.66331 Y169.254478
G1 F1200.0 X48.696758 Y167.6855
G1 F1200.0 X47.588596 Y166.242225
G1 F1200.0 X46.349347 Y164.929654
G1 F1200.0 X44.989536 Y163.752783
G1 F1200.0 X43.519689 Y162.716612
G1 F1200.0 X41.95033 Y161.826138
G1 F1200.0 X40.291984 Y161.086361
G1 F1200.0 X38.555175 Y160.502277
G1 F1200.0 X36.750428 Y160.078887
G1 F1200.0 X34.888267 Y159.821187
G1 F1200.0 X32.979219 Y159.734176
G1 F1200.0 X31.061166 Y159.821187
G1 F1200.0 X29.191124 Y160.078887
G1 F1200.0 X27.379544 Y160.502277
G1 F1200.0 X25.636876 Y161.086361
G1 F1200.0 X23.973569 Y161.826138
G1 F1200.0 X22.400073 Y162.716612
G1 F1200.0 X20.926838 Y163.752783
G1 F1200.0 X19.564315 Y164.929654
G1 F1200.0 X18.322952 Y166.242225
G1 F1200.0 X17.2132 Y167.6855
G1 F1200.0 X16.245509 Y169.254478
G1 F1200.0 X15.430329 Y170.944163
G1 F1200.0 X14.778109 Y172.749556
G1 F1200.0 X14.2993 Y174.665659
G1 F1200.0 X14.004352 Y176.687473
G1 F1200.0 X13.903713 Y178.809999
G1 F1200.0 X14.004352 Y180.941622
G1 F1200.0 X14.2993 Y182.971391
G1 F1200.0 X14.778109 Y184.894387
G1 F1200.0 X15.430329 Y186.705686
G1 F1200.0 X16.245509 Y188.400367
G1 F1200.0 X17.2132 Y189.973508
G1 F1200.0 X18.322952 Y191.420186
G1 F1200.0 X19.564315 Y192.735479
G1 F1200.0 X20.926838 Y193.914465
G1 F1200.0 X22.400073 Y194.952223
G1 F1200.0 X23.973569 Y195.84383
G1 F1200.0 X25.636876 Y196.584364
G1 F1200.0 X27.379544 Y197.168903
G1 F1200.0 X29.191124 Y197.592524
G1 F1200.0 X31.061166 Y197.850307
G1 F1200.0 X32.979219 Y197.937328
G4 P0
M280 S90 P0 F3000 R
G1 F3000 X130.722088 Y186.145308
G4 P0
M280 S-80 P0 F3000 R
G1 F1200.0 X130.722088 Y186.145308
G1 F1200.0 X130.722088 Y183.732343
G1 F1200.0 X119.623699 Y183.732343
G1 F1200.0 X119.623699 Y186.145308
G1 F1200.0 X130.722088 Y186.145308
G4 P0
M280 S90 P0 F3000 R
G1 F3000 X130.722088 Y196.640447
G4 P0
M280 S-80 P0 F3000 R
G1 F1200.0 X130.722088 Y196.640447
G1 F1200.0 X130.722088 Y187.200184
G1 F1200.0 X128.308806 Y187.200184
G1 F1200.0 X128.308806 Y196.640447
G1 F1200.0 X130.722088 Y196.640447
G4 P0
M280 S90 P0 F3000 R
G1 F3000 X126.379182 Y195.369706
G4 P0
M280 S-80 P0 F3000 R
G1 F1200.0 X126.379182 Y195.369706
G1 F1200.0 X126.379182 Y187.200184
G1 F1200.0 X123.965899 Y187.200184
G1 F1200.0 X123.965899 Y195.369706
G1 F1200.0 X126.379182 Y195.369706
G4 P0
M280 S90 P0 F3000 R
G1 F3000 X122.036981 Y194.099494
G4 P0
M280 S-80 P0 F3000 R
G1 F1200.0 X122.036981 Y194.099494
G1 F1200.0 X122.036981 Y187.200184
G1 F1200.0 X119.623699 Y187.200184
G1 F1200.0 X119.623699 Y194.099494
G1 F1200.0 X122.036981 Y194.099494
G4 P0
M280 S90 P0 F3000 R
G1 F3000 X22.482351 Y117.364154
G4 P0
M280 S-80 P0 F3000 R
G1 F1200.0 X22.482351 Y117.364154
G1 F1200.0 X21.551963 Y117.455863
G1 F1200.0 X20.689412 Y117.719424
G1 F1200.0 X19.912026 Y118.137489
G1 F1200.0 X19.237131 Y118.692711
G1 F1200.0 X18.682052 Y119.36774
G1 F1200.0 X18.264116 Y120.145231
G1 F1200.0 X18.000648 Y121.007833
G1 F1200.0 X17.908976 Y121.9382
G1 F1200.0 X18.000648 Y122.846479
G1 F1200.0 X18.264116 Y123.692444
G1 F1200.0 X18.682052 Y124.457973
G1 F1200.0 X19.237131 Y125.124948
G1 F1200.0 X19.912026 Y125.675247
G1 F1200.0 X20.689412 Y126.090753
G1 F1200.0 X21.551963 Y126.353344
G1 F1200.0 X22.482351 Y126.444901
G1 F1200.0 X23.390697 Y126.353344
G1 F1200.0 X24.236725 Y126.090753
G1 F1200.0 X25.002314 Y125.675247
G1 F1200.0 X25.669341 Y125.124948
G1 F1200.0 X26.219686 Y124.457973
G1 F1200.0 X26.635227 Y123.692444
G1 F1200.0 X26.89784 Y122.846479
G1 F1200.0 X26.989405 Y121.9382
G1 F1200.0 X26.89784 Y121.007833
G1 F1200.0 X26.635227 Y120.145231
G1 F1200.0 X26.219686 Y119.36774
G1 F1200.0 X25.669341 Y118.692711
G1 F1200.0 X25.002314 Y118.137489
G1 F1200.0 X24.236725 Y117.719424
G1 F1200.0 X23.390697 Y117.455863
G1 F1200.0 X22.482351 Y117.364154
G4 P0
M280 S90 P0 F3000 R
G1 F3000 X25.578294 Y154.565664
G4 P0
M280 S-80 P0 F3000 R
G1 F1200.0 X25.578294 Y154.565664
G1 F1200.0 X25.578294 Y130.755387
G1 F1200.0 X19.321463 Y130.755387
G1 F1200.0 X19.321463 Y154.565664
G1 F1200.0 X25.578294 Y154.565664
G4 P0
M280 S90 P0 F3000 R
G1 F3000 X120.712371 Y104.795387
G4 P0
M280 S-80 P0 F3000 R
G1 F1200.0 X120.712371 Y104.795387
G1 F1200.0 X121.026817 Y104.849074
G1 F1200.0 X121.284969 Y105.002662
G1 F1200.0 X121.459731 Y105.244937
G1 F1200.0 X121.524007 Y105.56469
G1 F1200.0 X121.459731 Y105.883158
G1 F1200.0 X121.284969 Y106.122952
G1 F1200.0 X121.026817 Y106.274124
G1 F1200.0 X120.712371 Y106.326725
G1 F1200.0 X120.402086 Y106.274124
G1 F1200.0 X120.14607 Y106.122952
G1 F1200.0 X119.972095 Y105.883158
G1 F1200.0 X119.907932 Y105.56469
G1 F1200.0 X119.974084 Y105.247988
G1 F1200.0 X120.151375 Y105.005374
G1 F1200.0 X120.408054 Y104.850091
G1 F1200.0 X120.712371 Y104.795387
G4 P0
M280 S90 P0 F3000 R
G1 F3000 X122.095577 Y107.766446
G4 P0
M280 S-80 P0 F3000 R
G1 F1200.0 X122.095577 Y107.766446
G1 F1200.0 X121.340386 Y107.928724
G1 F1200.0 X120.790746 Y107.8447
G1 F1200.0 X120.330383 Y107.595279
G1 F1200.0 X119.995724 Y107.184435
G1 F1200.0 X119.823195 Y106.616144
G1 F1200.0 X120.229052 Y106.965425
G1 F1200.0 X120.910103 Y107.124285
G1 F1200.0 X121.552988 Y107.016866
G1 F1200.0 X122.052336 Y106.709621
G1 F1200.0 X122.375723 Y106.225065
G1 F1200.0 X122.490724 Y105.585715
G1 F1200.0 X122.355884 Y104.938415
G1 F1200.0 X121.983557 Y104.429354
G1 F1200.0 X121.422034 Y104.096253
G1 F1200.0 X120.719603 Y103.976837
G1 F1200.0 X120.006759 Y104.110903
G1 F1200.0 X119.415653 Y104.509589
G1 F1200.0 X119.01246 Y105.167626
G1 F1200.0 X118.863357 Y106.079745
G1 F1200.0 X119.047961 Y107.193584
G1 F1200.0 X119.269038 Y107.653128
G1 F1200.0 X119.567365 Y108.040806
G1 F1200.0 X119.936489 Y108.351406
G1 F1200.0 X120.369959 Y108.579715
G1 F1200.0 X120.861324 Y108.720523
G1 F1200.0 X121.404133 Y108.768618
G1 F1200.0 X121.971373 Y108.705051
G1 F1200.0 X122.363936 Y108.556739
G1 F1200.0 X122.095577 Y107.766446
G4 P0
M280 S90 P0 F3000 R
G1 F3000 X116.698148 Y104.0826
G4 P0
M280 S-80 P0 F3000 R
G1 F1200.0 X116.698148 Y104.0826
G1 F1200.0 X116.698148 Y107.145311
G1 F1200.0 X115.597093 Y107.145311
G1 F1200.0 X115.597093 Y107.801583
G1 F1200.0 X116.058873 Y107.871669
G1 F1200.0 X116.428035 Y108.054798
G1 F1200.0 X116.688678 Y108.326549
G1 F1200.0 X116.824901 Y108.662502
G1 F1200.0 X117.66483 Y108.662502
G1 F1200.0 X117.66483 Y104.0826
G1 F1200.0 X116.698148 Y104.0826
G4 P0
M280 S90 P0 F3000 R
G1 F3000 X112.387274 Y105.20468
G4 P0
M280 S-80 P0 F3000 R
G1 F1200.0 X112.387274 Y105.20468
G1 F1200.0 X112.661427 Y104.932975
G1 F1200.0 X113.078719 Y104.830524
G1 F1200.0 X113.495001 Y104.932975
G1 F1200.0 X113.763249 Y105.20468
G1 F1200.0 X113.95923 Y105.710162
G1 F1200.0 X114.017496 Y106.369129
G1 F1200.0 X113.95923 Y107.028078
G1 F1200.0 X113.763249 Y107.533543
G1 F1200.0 X113.495001 Y107.805248
G1 F1200.0 X113.078719 Y107.907699
G1 F1200.0 X112.661427 Y107.805248
G1 F1200.0 X112.387274 Y107.533543
G1 F1200.0 X112.197621 Y107.028078
G1 F1200.0 X112.140259 Y106.369129
G1 F1200.0 X112.197621 Y105.710162
G1 F1200.0 X112.387274 Y105.20468
G4 P0
M280 S90 P0 F3000 R
G1 F3000 X111.568371 Y107.99935
G4 P0
M280 S-80 P0 F3000 R
G1 F1200.0 X111.568371 Y107.99935
G1 F1200.0 X112.170073 Y108.553344
G1 F1200.0 X112.584703 Y108.711929
G1 F1200.0 X113.078719 Y108.768618
G1 F1200.0 X113.57262 Y108.711929
G1 F1200.0 X113.986456 Y108.553344
G1 F1200.0 X114.322192 Y108.310078
G1 F1200.0 X114.581799 Y107.99935
G1 F1200.0 X114.902981 Y107.226467
G1 F1200.0 X114.991092 Y106.369129
G1 F1200.0 X114.902981 Y105.511764
G1 F1200.0 X114.581799 Y104.738908
G1 F1200.0 X114.322192 Y104.428159
G1 F1200.0 X113.986456 Y104.184883
G1 F1200.0 X113.57262 Y104.026294
G1 F1200.0 X113.078719 Y103.969605
G1 F1200.0 X112.584703 Y104.026294
G1 F1200.0 X112.170073 Y104.184883
G1 F1200.0 X111.568371 Y104.738908
G1 F1200.0 X111.250968 Y105.511764
G1 F1200.0 X111.166346 Y106.369129
G1 F1200.0 X111.250968 Y107.226467
G1 F1200.0 X111.568371 Y107.99935
G4 P0
M280 S90 P0 F3000 R
G1 F3000 X107.024311 Y106.919639
G4 P0
M280 S-80 P0 F3000 R
G1 F1200.0 X107.024311 Y106.919639
G1 F1200.0 X106.989174 Y107.23728
G1 F1200.0 X107.100672 Y107.815924
G1 F1200.0 X107.425882 Y108.304613
G1 F1200.0 X107.950887 Y108.64247
G1 F1200.0 X108.661764 Y108.768618
G1 F1200.0 X109.351427 Y108.650273
G1 F1200.0 X109.871069 Y108.330101
G1 F1200.0 X110.198861 Y107.860394
G1 F1200.0 X110.312976 Y107.293442
G1 F1200.0 X110.253447 Y106.870476
G1 F1200.0 X110.080134 Y106.491759
G1 F1200.0 X109.800948 Y106.159297
G1 F1200.0 X109.4238 Y105.875099
G1 F1200.0 X108.541538 Y105.3387
G1 F1200.0 X108.146356 Y104.922528
G1 F1200.0 X110.341234 Y104.922528
G1 F1200.0 X110.341234 Y104.0826
G1 F1200.0 X106.954038 Y104.0826
G1 F1200.0 X107.010481 Y104.657928
G1 F1200.0 X107.189367 Y105.176374
G1 F1200.0 X107.520507 Y105.636618
G1 F1200.0 X108.033714 Y106.037341
G1 F1200.0 X108.788553 Y106.489003
G1 F1200.0 X109.205955 Y106.852505
G1 F1200.0 X109.332183 Y107.279296
G1 F1200.0 X109.15837 Y107.717917
G1 F1200.0 X108.942075 Y107.856168
G1 F1200.0 X108.640386 Y107.907699
G1 F1200.0 X108.32144 Y107.849134
G1 F1200.0 X108.094388 Y107.687993
G1 F1200.0 X107.958609 Y107.446108
G1 F1200.0 X107.913487 Y107.145311
G1 F1200.0 X107.948977 Y106.891381
G1 F1200.0 X107.024311 Y106.919639
G4 P0
M280 S90 P0 F3000 R
G1 F3000 X102.071981 Y104.837756
G4 P0
M280 S-80 P0 F3000 R
G1 F1200.0 X102.071981 Y104.837756
G1 F1200.0 X102.407876 Y104.904901
G1 F1200.0 X102.678958 Y105.099724
G1 F1200.0 X102.860061 Y105.412307
G1 F1200.0 X102.926021 Y105.83273
G1 F1200.0 X102.860061 Y106.245816
G1 F1200.0 X102.678958 Y106.548997
G1 F1200.0 X102.407876 Y106.735715
G1 F1200.0 X102.071981 Y106.799412
G1 F1200.0 X101.735146 Y106.73459
G1 F1200.0 X101.461685 Y106.545421
G1 F1200.0 X101.278142 Y106.239848
G1 F1200.0 X101.211062 Y105.825816
G1 F1200.0 X101.276158 Y105.40939
G1 F1200.0 X101.456393 Y105.09886
G1 F1200.0 X101.729193 Y104.904793
G1 F1200.0 X102.071981 Y104.837756
G4 P0
M280 S90 P0 F3000 R
G1 F3000 X103.836541 Y104.71065
G4 P0
M280 S-80 P0 F3000 R
G1 F1200.0 X103.836541 Y104.71065
G1 F1200.0 X103.864445 Y104.0826
G1 F1200.0 X102.96839 Y104.0826
G1 F1200.0 X102.933253 Y104.484978
G1 F1200.0 X102.5627 Y104.138206
G1 F1200.0 X101.959339 Y103.997863
G1 F1200.0 X101.277819 Y104.135575
G1 F1200.0 X100.741833 Y104.517425
G1 F1200.0 X100.391108 Y105.096482
G1 F1200.0 X100.265371 Y105.825816
G1 F1200.0 X100.38766 Y106.537784
G1 F1200.0 X100.730284 Y107.113547
G1 F1200.0 X101.256879 Y107.498818
G1 F1200.0 X101.931082 Y107.639305
G1 F1200.0 X102.609337 Y107.492903
G1 F1200.0 X102.91191 Y107.209022
G1 F1200.0 X102.91191 Y109.192021
G1 F1200.0 X103.836541 Y109.192021
G1 F1200.0 X103.836541 Y104.71065
G4 P0
M280 S90 P0 F3000 R
G1 F3000 X99.723116 Y106.623023
G4 P0
M280 S-80 P0 F3000 R
G1 F1200.0 X99.723116 Y106.623023
G1 F1200.0 X99.440612 Y106.651281
G1 F1200.0 X99.098152 Y106.603203
G1 F1200.0 X98.812628 Y106.441338
G1 F1200.0 X98.617081 Y106.139237
G1 F1200.0 X98.544556 Y105.670453
G1 F1200.0 X98.544556 Y104.0826
G1 F1200.0 X97.605744 Y104.0826
G1 F1200.0 X97.605744 Y107.554568
G1 F1200.0 X98.516299 Y107.554568
G1 F1200.0 X98.516299 Y107.039548
G1 F1200.0 X98.718209 Y107.317882
G1 F1200.0 X98.97842 Y107.483139
G1 F1200.0 X99.504359 Y107.582826
G1 F1200.0 X99.723116 Y107.568714
G1 F1200.0 X99.723116 Y106.623023
G4 P0
M280 S90 P0 F3000 R
G1 F3000 X95.426389 Y105.486832
G4 P0
M280 S-80 P0 F3000 R
G1 F1200.0 X95.426389 Y105.486832
G1 F1200.0 X95.426389 Y105.642195
G1 F1200.0 X94.642975 Y105.522321
G1 F1200.0 X94.337606 Y105.390753
G1 F1200.0 X94.212339 Y105.084771
G1 F1200.0 X94.324346 Y104.806853
G1 F1200.0 X94.664001 Y104.682393
G1 F1200.0 X94.949826 Y104.721756
G1 F1200.0 X95.193375 Y104.854398
G1 F1200.0 X95.362833 Y105.102147
G1 F1200.0 X95.426389 Y105.486832
G4 P0
M280 S90 P0 F3000 R
G1 F3000 X94.311223 Y106.079745
G4 P0
M280 S-80 P0 F3000 R
G1 F1200.0 X94.311223 Y106.079745
G1 F1200.0 X95.165263 Y106.206851
G1 F1200.0 X95.369843 Y106.296002
G1 F1200.0 X95.426389 Y106.453866
G1 F1200.0 X95.281701 Y106.772327
G1 F1200.0 X94.84039 Y106.905528
G1 F1200.0 X94.365908 Y106.73701
G1 F1200.0 X94.177203 Y106.340871
G1 F1200.0 X93.344506 Y106.51726
G1 F1200.0 X93.470001 Y106.925115
G1 F1200.0 X93.760854 Y107.292701
G1 F1200.0 X94.215776 Y107.558422
G1 F1200.0 X94.833475 Y107.660684
G1 F1200.0 X95.533841 Y107.552714
G1 F1200.0 X96.001425 Y107.262781
G1 F1200.0 X96.262622 Y106.841846
G1 F1200.0 X96.343823 Y106.340871
G1 F1200.0 X96.343823 Y104.633145
G1 F1200.0 X96.385839 Y104.0826
G1 F1200.0 X95.52492 Y104.0826
G1 F1200.0 X95.489783 Y104.499124
G1 F1200.0 X95.105185 Y104.138193
G1 F1200.0 X94.466586 Y103.983716
G1 F1200.0 X93.967598 Y104.070528
G1 F1200.0 X93.592341 Y104.302261
G1 F1200.0 X93.356031 Y104.635866
G1 F1200.0 X93.27388 Y105.028291
G1 F1200.0 X93.354571 Y105.442701
G1 F1200.0 X93.575501 Y105.755154
G1 F1200.0 X93.904956 Y105.967039
G1 F1200.0 X94.311223 Y106.079745
G4 P0
M280 S90 P0 F3000 R
G1 F3000 X90.416874 Y107.554568
G4 P0
M280 S-80 P0 F3000 R
G1 F1200.0 X90.416874 Y107.554568
G1 F1200.0 X91.165151 Y105.317675
G1 F1200.0 X91.807312 Y107.554568
G1 F1200.0 X92.738857 Y107.554568
G1 F1200.0 X91.651949 Y104.0826
G1 F1200.0 X90.713489 Y104.0826
G1 F1200.0 X89.901818 Y106.453866
G1 F1200.0 X89.104294 Y104.0826
G1 F1200.0 X88.151723 Y104.0826
G1 F1200.0 X87.043789 Y107.554568
G1 F1200.0 X88.031849 Y107.554568
G1 F1200.0 X88.674011 Y105.324554
G1 F1200.0 X89.429167 Y107.554568
G1 F1200.0 X90.416874 Y107.554568
G4 P0
M280 S90 P0 F3000 R
G1 F3000 X83.601101 Y106.115199
G4 P0
M280 S-80 P0 F3000 R
G1 F1200.0 X83.601101 Y106.115199
G1 F1200.0 X84.984308 Y106.115199
G1 F1200.0 X84.292863 Y108.006229
G1 F1200.0 X83.601101 Y106.115199
G4 P0
M280 S90 P0 F3000 R
G1 F3000 X85.309181 Y105.225706
G4 P0
M280 S-80 P0 F3000 R
G1 F1200.0 X85.309181 Y105.225706
G1 F1200.0 X83.276581 Y105.225706
G1 F1200.0 X82.860409 Y104.0826
G1 F1200.0 X81.829981 Y104.0826
G1 F1200.0 X83.749586 Y109.085906
G1 F1200.0 X84.878545 Y109.085906
G1 F1200.0 X86.784039 Y104.0826
G1 F1200.0 X85.725353 Y104.0826
G1 F1200.0 X85.309181 Y105.225706
G4 P0
M280 S90 P0 F3000 R
G1 F3000 X76.701262 Y104.0826
G4 P0
M280 S-80 P0 F3000 R
G1 F1200.0 X76.701262 Y104.0826
G1 F1200.0 X75.762485 Y104.0826
G1 F1200.0 X75.762485 Y107.554568
G1 F1200.0 X76.673004 Y107.554568
G1 F1200.0 X76.673004 Y107.124285
G1 F1200.0 X77.113117 Y107.5203
G1 F1200.0 X77.675176 Y107.646573
G1 F1200.0 X78.234656 Y107.538683
G1 F1200.0 X78.626084 Y107.244172
G1 F1200.0 X78.856082 Y106.80678
G1 F1200.0 X78.931276 Y106.270245
G1 F1200.0 X78.931276 Y104.0826
G1 F1200.0 X77.992499 Y104.0826
G1 F1200.0 X77.992499 Y106.107968
G1 F1200.0 X77.840774 Y106.59929
G1 F1200.0 X77.64119 Y106.745974
G1 F1200.0 X77.350303 Y106.799412
G1 F1200.0 X77.076234 Y106.743548
G1 F1200.0 X76.872311 Y106.59047
G1 F1200.0 X76.701262 Y106.079745
G1 F1200.0 X76.701262 Y104.0826
G4 P0
M280 S90 P0 F3000 R
G1 F3000 X73.90765 Y105.818584
G4 P0
M280 S-80 P0 F3000 R
G1 F1200.0 X73.90765 Y105.818584
G1 F1200.0 X73.834323 Y106.249848
G1 F1200.0 X73.638586 Y106.558729
G1 F1200.0 X73.356807 Y106.744553
G1 F1200.0 X73.025353 Y106.806644
G1 F1200.0 X72.694102 Y106.744553
G1 F1200.0 X72.412428 Y106.558729
G1 F1200.0 X72.21673 Y106.249848
G1 F1200.0 X72.143408 Y105.818584
G1 F1200.0 X72.21673 Y105.390386
G1 F1200.0 X72.412428 Y105.081164
G1 F1200.0 X72.694102 Y104.893637
G1 F1200.0 X73.025353 Y104.830524
G1 F1200.0 X73.356807 Y104.89262
G1 F1200.0 X73.638586 Y105.078452
G1 F1200.0 X73.834323 Y105.387335
G1 F1200.0 X73.90765 Y105.818584
G4 P0
M280 S90 P0 F3000 R
G1 F3000 X74.846074 Y105.818584
G4 P0
M280 S-80 P0 F3000 R
G1 F1200.0 X74.846074 Y105.818584
G1 F1200.0 X74.707507 Y105.081276
G1 F1200.0 X74.324836 Y104.498123
G1 F1200.0 X73.747604 Y104.114765
G1 F1200.0 X73.025353 Y103.976837
G1 F1200.0 X72.30323 Y104.114765
G1 F1200.0 X71.725971 Y104.498123
G1 F1200.0 X71.343213 Y105.081276
G1 F1200.0 X71.204596 Y105.818584
G1 F1200.0 X71.343213 Y106.558998
G1 F1200.0 X71.725971 Y107.141933
G1 F1200.0 X72.30323 Y107.523718
G1 F1200.0 X73.025353 Y107.660684
G1 F1200.0 X73.747604 Y107.523718
G1 F1200.0 X74.324836 Y107.141933
G1 F1200.0 X74.707507 Y106.558998
G1 F1200.0 X74.846074 Y105.818584
G4 P0
M280 S90 P0 F3000 R
G1 F3000 X69.349091 Y104.0826
G4 P0
M280 S-80 P0 F3000 R
G1 F1200.0 X69.349091 Y104.0826
G1 F1200.0 X69.349091 Y107.554568
G1 F1200.0 X70.287868 Y107.554568
G1 F1200.0 X70.287868 Y104.0826
G1 F1200.0 X69.349091 Y104.0826
G4 P0
M280 S90 P0 F3000 R
G1 F3000 X69.814863 Y109.276441
G4 P0
M280 S-80 P0 F3000 R
G1 F1200.0 X69.814863 Y109.276441
G1 F1200.0 X70.226074 Y109.105428
G1 F1200.0 X70.393631 Y108.690759
G1 F1200.0 X70.226074 Y108.288588
G1 F1200.0 X69.814863 Y108.119224
G1 F1200.0 X69.406655 Y108.288588
G1 F1200.0 X69.236414 Y108.690759
G1 F1200.0 X69.406655 Y109.105428
G1 F1200.0 X69.814863 Y109.276441
G4 P0
M280 S90 P0 F3000 R
G1 F3000 X67.536272 Y107.554568
G4 P0
M280 S-80 P0 F3000 R
G1 F1200.0 X67.536272 Y107.554568
G1 F1200.0 X68.234948 Y107.554568
G1 F1200.0 X68.234948 Y106.721907
G1 F1200.0 X67.536272 Y106.721907
G1 F1200.0 X67.536272 Y105.268074
G1 F1200.0 X67.640403 Y104.953352
G1 F1200.0 X67.945564 Y104.866013
G1 F1200.0 X68.234948 Y104.894271
G1 F1200.0 X68.234948 Y104.117736
G1 F1200.0 X67.705429 Y104.033352
G1 F1200.0 X67.247709 Y104.106644
G1 F1200.0 X66.901091 Y104.318167
G1 F1200.0 X66.681466 Y104.655394
G1 F1200.0 X66.604727 Y105.105796
G1 F1200.0 X66.604727 Y106.721907
G1 F1200.0 X65.976676 Y106.721907
G1 F1200.0 X65.976676 Y107.554568
G1 F1200.0 X66.153065 Y107.554568
G1 F1200.0 X66.558848 Y107.713437
G1 F1200.0 X66.689464 Y108.105113
G1 F1200.0 X66.689464 Y108.592229
G1 F1200.0 X67.536272 Y108.592229
G1 F1200.0 X67.536272 Y107.554568
G4 P0
M280 S90 P0 F3000 R
G1 F3000 X64.220725 Y105.486832
G4 P0
M280 S-80 P0 F3000 R
G1 F1200.0 X64.220725 Y105.486832
G1 F1200.0 X64.220725 Y105.642195
G1 F1200.0 X63.437311 Y105.522321
G1 F1200.0 X63.131943 Y105.390753
G1 F1200.0 X63.006676 Y105.084771
G1 F1200.0 X63.118678 Y104.806853
G1 F1200.0 X63.458302 Y104.682393
G1 F1200.0 X63.744148 Y104.721756
G1 F1200.0 X63.987706 Y104.854398
G1 F1200.0 X64.157169 Y105.102147
G1 F1200.0 X64.220725 Y105.486832
G4 P0
M280 S90 P0 F3000 R
G1 F3000 X63.105524 Y106.079745
G4 P0
M280 S-80 P0 F3000 R
G1 F1200.0 X63.105524 Y106.079745
G1 F1200.0 X63.959564 Y106.206851
G1 F1200.0 X64.164175 Y106.296002
G1 F1200.0 X64.220725 Y106.453866
G1 F1200.0 X64.07602 Y106.772327
G1 F1200.0 X63.634691 Y106.905528
G1 F1200.0 X63.160226 Y106.73701
G1 F1200.0 X62.971539 Y106.340871
G1 F1200.0 X62.138842 Y106.51726
G1 F1200.0 X62.264337 Y106.925115
G1 F1200.0 X62.555191 Y107.292701
G1 F1200.0 X63.010112 Y107.558422
G1 F1200.0 X63.627811 Y107.660684
G1 F1200.0 X64.328162 Y107.552714
G1 F1200.0 X64.795748 Y107.262781
G1 F1200.0 X65.056953 Y106.841846
G1 F1200.0 X65.138159 Y106.340871
G1 F1200.0 X65.138159 Y104.633145
G1 F1200.0 X65.180175 Y104.0826
G1 F1200.0 X64.319256 Y104.0826
G1 F1200.0 X64.284119 Y104.499124
G1 F1200.0 X63.899508 Y104.138193
G1 F1200.0 X63.260923 Y103.983716
G1 F1200.0 X62.761934 Y104.070528
G1 F1200.0 X62.386677 Y104.302261
G1 F1200.0 X62.150367 Y104.635866
G1 F1200.0 X62.068216 Y105.028291
G1 F1200.0 X62.148906 Y105.442701
G1 F1200.0 X62.369832 Y105.755154
G1 F1200.0 X62.699277 Y105.967039
G1 F1200.0 X63.105524 Y106.079745
G4 P0
M280 S90 P0 F3000 R
G1 F3000 X60.198917 Y104.0826
G4 P0
M280 S-80 P0 F3000 R
G1 F1200.0 X60.198917 Y104.0826
G1 F1200.0 X59.260105 Y104.0826
G1 F1200.0 X57.841762 Y107.554568
G1 F1200.0 X58.872191 Y107.554568
G1 F1200.0 X59.733145 Y105.225706
G1 F1200.0 X60.558574 Y107.554568
G1 F1200.0 X61.546634 Y107.554568
G1 F1200.0 X60.198917 Y104.0826
G4 P0
M280 S90 P0 F3000 R
G1 F3000 X56.523008 Y105.818584
G4 P0
M280 S-80 P0 F3000 R
G1 F1200.0 X56.523008 Y105.818584
G1 F1200.0 X56.449681 Y106.249848
G1 F1200.0 X56.253944 Y106.558729
G1 F1200.0 X55.972165 Y106.744553
G1 F1200.0 X55.640711 Y106.806644
G1 F1200.0 X55.30946 Y106.744553
G1 F1200.0 X55.027786 Y106.558729
G1 F1200.0 X54.832088 Y106.249848
G1 F1200.0 X54.758766 Y105.818584
G1 F1200.0 X54.832088 Y105.390386
G1 F1200.0 X55.027786 Y105.081164
G1 F1200.0 X55.30946 Y104.893637
G1 F1200.0 X55.640711 Y104.830524
G1 F1200.0 X55.972165 Y104.89262
G1 F1200.0 X56.253944 Y105.078452
G1 F1200.0 X56.449681 Y105.387335
G1 F1200.0 X56.523008 Y105.818584
G4 P0
M280 S90 P0 F3000 R
G1 F3000 X57.461432 Y105.818584
G4 P0
M280 S-80 P0 F3000 R
G1 F1200.0 X57.461432 Y105.818584
G1 F1200.0 X57.322866 Y105.081276
G1 F1200.0 X56.940194 Y104.498123
G1 F1200.0 X56.362962 Y104.114765
G1 F1200.0 X55.640711 Y103.976837
G1 F1200.0 X54.918603 Y104.114765
G1 F1200.0 X54.341342 Y104.498123
G1 F1200.0 X53.958576 Y105.081276
G1 F1200.0 X53.819954 Y105.818584
G1 F1200.0 X53.958576 Y106.558998
G1 F1200.0 X54.341342 Y107.141933
G1 F1200.0 X54.918603 Y107.523718
G1 F1200.0 X55.640711 Y107.660684
G1 F1200.0 X56.362962 Y107.523718
G1 F1200.0 X56.940194 Y107.141933
G1 F1200.0 X57.322866 Y106.558998
G1 F1200.0 X57.461432 Y105.818584
G4 P0
M280 S90 P0 F3000 R
G1 F3000 X50.723165 Y104.0826
G4 P0
M280 S-80 P0 F3000 R
G1 F1200.0 X50.723165 Y104.0826
G1 F1200.0 X49.784388 Y104.0826
G1 F1200.0 X49.784388 Y107.554568
G1 F1200.0 X50.694908 Y107.554568
G1 F1200.0 X50.694908 Y107.124285
G1 F1200.0 X51.135037 Y107.5203
G1 F1200.0 X51.697114 Y107.646573
G1 F1200.0 X52.256574 Y107.538683
G1 F1200.0 X52.647991 Y107.244172
G1 F1200.0 X52.877986 Y106.80678
G1 F1200.0 X52.953179 Y106.270245
G1 F1200.0 X52.953179 Y104.0826
G1 F1200.0 X52.014402 Y104.0826
G1 F1200.0 X52.014402 Y106.107968
G1 F1200.0 X51.862681 Y106.59929
G1 F1200.0 X51.663108 Y106.745974
G1 F1200.0 X51.372241 Y106.799412
G1 F1200.0 X51.098152 Y106.743548
G1 F1200.0 X50.894218 Y106.59047
G1 F1200.0 X50.723165 Y106.079745
G1 F1200.0 X50.723165 Y104.0826
G4 P0
M280 S90 P0 F3000 R
G1 F3000 X46.426437 Y104.0826
G4 P0
M280 S-80 P0 F3000 R
G1 F1200.0 X46.426437 Y104.0826
G1 F1200.0 X45.487661 Y104.0826
G1 F1200.0 X45.487661 Y107.554568
G1 F1200.0 X46.398215 Y107.554568
G1 F1200.0 X46.398215 Y107.124285
G1 F1200.0 X46.838314 Y107.5203
G1 F1200.0 X47.400386 Y107.646573
G1 F1200.0 X47.959847 Y107.538683
G1 F1200.0 X48.351264 Y107.244172
G1 F1200.0 X48.581258 Y106.80678
G1 F1200.0 X48.656452 Y106.270245
G1 F1200.0 X48.656452 Y104.0826
G1 F1200.0 X47.717675 Y104.0826
G1 F1200.0 X47.717675 Y106.107968
G1 F1200.0 X47.565967 Y106.59929
G1 F1200.0 X47.366396 Y106.745974
G1 F1200.0 X47.075513 Y106.799412
G1 F1200.0 X46.801425 Y106.743548
G1 F1200.0 X46.597491 Y106.59047
G1 F1200.0 X46.426437 Y106.079745
G1 F1200.0 X46.426437 Y104.0826
G4 P0
M280 S90 P0 F3000 R
G1 F3000 X43.25112 Y104.0826
G4 P0
M280 S-80 P0 F3000 R
G1 F1200.0 X43.25112 Y104.0826
G1 F1200.0 X43.25112 Y109.085906
G1 F1200.0 X44.239145 Y109.085906
G1 F1200.0 X44.239145 Y104.0826
G1 F1200.0 X43.25112 Y104.0826
G4 P0
M280 S90 P0 F3000 R
G1 F3000 X39.12422 Y105.818584
G4 P0
M280 S-80 P0 F3000 R
G1 F1200.0 X39.12422 Y105.818584
G1 F1200.0 X39.050893 Y106.249848
G1 F1200.0 X38.855156 Y106.558729
G1 F1200.0 X38.573377 Y106.744553
G1 F1200.0 X38.241922 Y106.806644
G1 F1200.0 X37.910672 Y106.744553
G1 F1200.0 X37.628998 Y106.558729
G1 F1200.0 X37.4333 Y106.249848
G1 F1200.0 X37.359978 Y105.818584
G1 F1200.0 X37.4333 Y105.390386
G1 F1200.0 X37.628998 Y105.081164
G1 F1200.0 X37.910672 Y104.893637
G1 F1200.0 X38.241922 Y104.830524
G1 F1200.0 X38.573377 Y104.89262
G1 F1200.0 X38.855156 Y105.078452
G1 F1200.0 X39.050893 Y105.387335
G1 F1200.0 X39.12422 Y105.818584
G4 P0
M280 S90 P0 F3000 R
G1 F3000 X40.062679 Y105.818584
G4 P0
M280 S-80 P0 F3000 R
G1 F1200.0 X40.062679 Y105.818584
G1 F1200.0 X39.924112 Y105.081276
G1 F1200.0 X39.541437 Y104.498123
G1 F1200.0 X38.964194 Y104.114765
G1 F1200.0 X38.241922 Y103.976837
G1 F1200.0 X37.519821 Y104.114765
G1 F1200.0 X36.942571 Y104.498123
G1 F1200.0 X36.559817 Y105.081276
G1 F1200.0 X36.421201 Y105.818584
G1 F1200.0 X36.559817 Y106.558998
G1 F1200.0 X36.942571 Y107.141933
G1 F1200.0 X37.519821 Y107.523718
G1 F1200.0 X38.241922 Y107.660684
G1 F1200.0 X38.964194 Y107.523718
G1 F1200.0 X39.541437 Y107.141933
G1 F1200.0 X39.924112 Y106.558998
G1 F1200.0 X40.062679 Y105.818584
G4 P0
M280 S90 P0 F3000 R
G1 F3000 X34.706913 Y104.0826
G4 P0
M280 S-80 P0 F3000 R
G1 F1200.0 X34.706913 Y104.0826
G1 F1200.0 X34.706913 Y109.192021
G1 F1200.0 X35.645725 Y109.192021
G1 F1200.0 X35.645725 Y104.0826
G1 F1200.0 X34.706913 Y104.0826
G4 P0
M280 S90 P0 F3000 R
G1 F3000 X31.78616 Y105.225706
G4 P0
M280 S-80 P0 F3000 R
G1 F1200.0 X31.78616 Y105.225706
G1 F1200.0 X31.958346 Y104.858027
G1 F1200.0 X32.421442 Y104.696539
G1 F1200.0 X32.767116 Y104.800613
G1 F1200.0 X32.879982 Y105.042402
G1 F1200.0 X32.7936 Y105.248817
G1 F1200.0 X32.506214 Y105.381069
G1 F1200.0 X32.047321 Y105.486832
G1 F1200.0 X31.612309 Y105.643102
G1 F1200.0 X31.30894 Y105.878662
G1 F1200.0 X31.131274 Y106.177722
G1 F1200.0 X31.073372 Y106.524492
G1 F1200.0 X31.171081 Y106.96393
G1 F1200.0 X31.442135 Y107.325395
G1 F1200.0 X31.853425 Y107.570456
G1 F1200.0 X32.371841 Y107.660684
G1 F1200.0 X32.995562 Y107.556656
G1 F1200.0 X33.407566 Y107.299761
G1 F1200.0 X33.642253 Y106.972785
G1 F1200.0 X33.734022 Y106.658513
G1 F1200.0 X32.950609 Y106.482124
G1 F1200.0 X32.802424 Y106.791752
G1 F1200.0 X32.379073 Y106.947896
G1 F1200.0 X32.064069 Y106.848977
G1 F1200.0 X31.934326 Y106.601998
G1 F1200.0 X32.021696 Y106.396416
G1 F1200.0 X32.251968 Y106.291588
G1 F1200.0 X32.745962 Y106.185508
G1 F1200.0 X33.195768 Y106.031013
G1 F1200.0 X33.517889 Y105.790423
G1 F1200.0 X33.711653 Y105.480976
G1 F1200.0 X33.776391 Y105.119908
G1 F1200.0 X33.693802 Y104.703103
G1 F1200.0 X33.443818 Y104.336639
G1 F1200.0 X33.023112 Y104.076042
G1 F1200.0 X32.428356 Y103.976837
G1 F1200.0 X31.767752 Y104.088839
G1 F1200.0 X31.329361 Y104.364884
G1 F1200.0 X31.078818 Y104.715024
G1 F1200.0 X30.981756 Y105.049317
G1 F1200.0 X31.78616 Y105.225706
G4 P0
M280 S90 P0 F3000 R
G1 F3000 X27.750946 Y104.922528
G4 P0
M280 S-80 P0 F3000 R
G1 F1200.0 X27.750946 Y104.922528
G1 F1200.0 X28.323215 Y105.023931
G1 F1200.0 X28.825428 Y105.331715
G1 F1200.0 X29.182107 Y105.851246
G1 F1200.0 X29.317774 Y106.587886
G1 F1200.0 X29.182107 Y107.324378
G1 F1200.0 X28.825428 Y107.843925
G1 F1200.0 X28.323215 Y108.151792
G1 F1200.0 X27.750946 Y108.253244
G1 F1200.0 X27.18271 Y108.151792
G1 F1200.0 X26.68266 Y107.843925
G1 F1200.0 X26.326855 Y107.324378
G1 F1200.0 X26.191351 Y106.587886
G1 F1200.0 X26.326855 Y105.851246
G1 F1200.0 X26.68266 Y105.331715
G1 F1200.0 X27.18271 Y105.023931
G1 F1200.0 X27.750946 Y104.922528
G4 P0
M280 S90 P0 F3000 R
G1 F3000 X27.750946 Y109.192021
G4 P0
M280 S-80 P0 F3000 R
G1 F1200.0 X27.750946 Y109.192021
G1 F1200.0 X28.728097 Y109.011256
G1 F1200.0 X29.549703 Y108.492366
G1 F1200.0 X29.870969 Y108.117096
G1 F1200.0 X30.1159 Y107.670462
G1 F1200.0 X30.272012 Y107.156852
G1 F1200.0 X30.326824 Y106.580654
G1 F1200.0 X30.272012 Y106.006848
G1 F1200.0 X30.1159 Y105.495062
G1 F1200.0 X29.870969 Y105.049764
G1 F1200.0 X29.549703 Y104.675416
G1 F1200.0 X28.728097 Y104.157435
G1 F1200.0 X27.750946 Y103.976837
G1 F1200.0 X26.777956 Y104.157435
G1 F1200.0 X25.958487 Y104.675416
G1 F1200.0 X25.637741 Y105.049764
G1 F1200.0 X25.393077 Y105.495062
G1 F1200.0 X25.237063 Y106.006848
G1 F1200.0 X25.182266 Y106.580654
G1 F1200.0 X25.237063 Y107.156852
G1 F1200.0 X25.393077 Y107.670462
G1 F1200.0 X25.637741 Y108.117096
G1 F1200.0 X25.958487 Y108.492366
G1 F1200.0 X26.777956 Y109.011256
G1 F1200.0 X27.750946 Y109.192021
G4 P0
M280 S90 P0 F3000 R
G1 F3000 X131.42281 Y13.87831
G4 P0
M280 S-80 P0 F3000 R
G1 F1200.0 X131.42281 Y13.87831
G1 F1200.0 X131.42281 Y14.519766
G1 F1200.0 X132.445654 Y15.507473
G1 F1200.0 X131.861031 Y14.945251
G1 F1200.0 X132.553498 Y13.87831
G1 F1200.0 X131.861031 Y14.945251
G1 F1200.0 X131.42281 Y14.519766
G1 F1200.0 X131.42281 Y16.168261
G1 F1200.0 X131.42281 Y13.87831
G4 P0
M280 S90 P0 F3000 R
G1 F3000 X128.940278 Y14.748507
G4 P0
M280 S-80 P0 F3000 R
G1 F1200.0 X128.940278 Y14.748507
G1 F1200.0 X130.359997 Y14.748507
G1 F1200.0 X130.226929 Y15.282387
G1 F1200.0 X130.028914 Y15.475954
G1 F1200.0 X129.715084 Y15.551923
G1 F1200.0 X129.381916 Y15.490174
G1 F1200.0 X129.138023 Y15.315028
G1 F1200.0 X128.988182 Y15.041636
G1 F1200.0 X128.937173 Y14.685148
G1 F1200.0 X128.999325 Y14.336751
G1 F1200.0 X129.167736 Y14.085518
G1 F1200.0 X129.415343 Y13.935575
G1 F1200.0 X129.715084 Y13.891045
G1 F1200.0 X130.182448 Y14.082061
G1 F1200.0 X130.347261 Y14.351632
G1 F1200.0 X130.182448 Y14.082061
G1 F1200.0 X129.715084 Y13.891045
G1 F1200.0 X129.415343 Y13.935575
G1 F1200.0 X129.167736 Y14.085518
G1 F1200.0 X128.999325 Y14.336751
G1 F1200.0 X128.937173 Y14.685148
G1 F1200.0 X128.988182 Y15.041636
G1 F1200.0 X129.138023 Y15.315028
G1 F1200.0 X129.381916 Y15.490174
G1 F1200.0 X129.715084 Y15.551923
G1 F1200.0 X130.028914 Y15.475954
G1 F1200.0 X130.226929 Y15.282387
G1 F1200.0 X130.359997 Y14.748507
G1 F1200.0 X128.940278 Y14.748507
G4 P0
M280 S90 P0 F3000 R
G1 F3000 X126.669976 Y14.748507
G4 P0
M280 S-80 P0 F3000 R
G1 F1200.0 X126.669976 Y14.748507
G1 F1200.0 X128.089695 Y14.748507
G1 F1200.0 X127.956623 Y15.282387
G1 F1200.0 X127.758597 Y15.475954
G1 F1200.0 X127.444747 Y15.551923
G1 F1200.0 X127.1116 Y15.490174
G1 F1200.0 X126.867717 Y15.315028
G1 F1200.0 X126.71788 Y15.041636
G1 F1200.0 X126.666872 Y14.685148
G1 F1200.0 X126.729023 Y14.336751
G1 F1200.0 X126.89743 Y14.085518
G1 F1200.0 X127.145027 Y13.935575
G1 F1200.0 X127.444747 Y13.891045
G1 F1200.0 X127.912138 Y14.082061
G1 F1200.0 X128.076925 Y14.351632
G1 F1200.0 X127.912138 Y14.082061
G1 F1200.0 X127.444747 Y13.891045
G1 F1200.0 X127.145027 Y13.935575
G1 F1200.0 X126.89743 Y14.085518
G1 F1200.0 X126.729023 Y14.336751
G1 F1200.0 X126.666872 Y14.685148
G1 F1200.0 X126.71788 Y15.041636
G1 F1200.0 X126.867717 Y15.315028
G1 F1200.0 X127.1116 Y15.490174
G1 F1200.0 X127.444747 Y15.551923
G1 F1200.0 X127.758597 Y15.475954
G1 F1200.0 X127.956623 Y15.282387
G1 F1200.0 X128.089695 Y14.748507
G1 F1200.0 X126.669976 Y14.748507
G4 P0
M280 S90 P0 F3000 R
G1 F3000 X123.190423 Y16.168261
G4 P0
M280 S-80 P0 F3000 R
G1 F1200.0 X123.190423 Y16.168261
G1 F1200.0 X123.793638 Y13.87831
G1 F1200.0 X124.520925 Y16.168261
G1 F1200.0 X125.248176 Y13.87831
G1 F1200.0 X125.851744 Y16.168261
G1 F1200.0 X125.248176 Y13.87831
G1 F1200.0 X124.520925 Y16.168261
G1 F1200.0 X123.793638 Y13.87831
G1 F1200.0 X123.190423 Y16.168261
G4 P0
M280 S90 P0 F3000 R
G1 F3000 X119.516913 Y13.87831
G4 P0
M280 S-80 P0 F3000 R
G1 F1200.0 X119.516913 Y13.87831
G1 F1200.0 X119.516913 Y15.507473
G1 F1200.0 X119.516913 Y13.87831
G4 P0
M280 S90 P0 F3000 R
G1 F3000 X120.685842 Y13.87831
G4 P0
M280 S-80 P0 F3000 R
G1 F1200.0 X120.685842 Y13.87831
G1 F1200.0 X120.685842 Y15.085127
G1 F1200.0 X120.56237 Y15.349905
G1 F1200.0 X120.13632 Y15.507473
G1 F1200.0 X119.868043 Y15.455612
G1 F1200.0 X119.674177 Y15.31658
G1 F1200.0 X119.516913 Y14.904258
G1 F1200.0 X119.674177 Y15.31658
G1 F1200.0 X119.868043 Y15.455612
G1 F1200.0 X120.13632 Y15.507473
G1 F1200.0 X120.56237 Y15.349905
G1 F1200.0 X120.685842 Y15.085127
G1 F1200.0 X120.685842 Y13.87831
G4 P0
M280 S90 P0 F3000 R
G1 F3000 X117.104301 Y14.710301
G4 P0
M280 S-80 P0 F3000 R
G1 F1200.0 X117.104301 Y14.710301
G1 F1200.0 X117.16154 Y15.110429
G1 F1200.0 X117.317 Y15.36529
G1 F1200.0 X117.546291 Y15.499879
G1 F1200.0 X117.825026 Y15.539188
G1 F1200.0 X118.105269 Y15.499879
G1 F1200.0 X118.334508 Y15.36529
G1 F1200.0 X118.489266 Y15.110429
G1 F1200.0 X118.546069 Y14.710301
G1 F1200.0 X118.489266 Y14.308363
G1 F1200.0 X118.334508 Y14.052582
G1 F1200.0 X118.105269 Y13.917662
G1 F1200.0 X117.825026 Y13.87831
G1 F1200.0 X117.546291 Y13.917662
G1 F1200.0 X117.317 Y14.052582
G1 F1200.0 X117.16154 Y14.308363
G1 F1200.0 X117.104301 Y14.710301
G4 P0
M280 S90 P0 F3000 R
G1 F3000 X116.110385 Y13.881379
G4 P0
M280 S-80 P0 F3000 R
G1 F1200.0 X116.110385 Y13.881379
G1 F1200.0 X116.110385 Y15.510577
G1 F1200.0 X116.110385 Y14.693663
G1 F1200.0 X116.110385 Y14.133337
G1 F1200.0 X116.110385 Y13.949611
G1 F1200.0 X116.110385 Y13.898658
G1 F1200.0 X116.110385 Y13.885509
G1 F1200.0 X116.110385 Y13.882279
G1 F1200.0 X116.110385 Y13.881533
G1 F1200.0 X116.110385 Y13.881381
G1 F1200.0 X116.110385 Y13.881379
G4 P0
M280 S90 P0 F3000 R
G1 F3000 X116.110385 Y16.114145
G4 P0
M280 S-80 P0 F3000 R
G1 F1200.0 X116.110385 Y16.114145
G1 F1200.0 X116.110385 Y16.171365
G1 F1200.0 X116.110385 Y16.114145
G4 P0
M280 S90 P0 F3000 R
G1 F3000 X114.593194 Y14.091211
G4 P0
M280 S-80 P0 F3000 R
G1 F1200.0 X114.593194 Y14.091211
G1 F1200.0 X114.593194 Y16.123811
G1 F1200.0 X114.593194 Y14.091211
G1 F1200.0 X114.696707 Y13.909217
G1 F1200.0 X114.917008 Y13.894149
G1 F1200.0 X114.696707 Y13.909217
G1 F1200.0 X114.593194 Y14.091211
G4 P0
M280 S90 P0 F3000 R
G1 F3000 X114.923217 Y15.523313
G4 P0
M280 S-80 P0 F3000 R
G1 F1200.0 X114.923217 Y15.523313
G1 F1200.0 X114.259677 Y15.523313
G1 F1200.0 X114.923217 Y15.523313
G4 P0
M280 S90 P0 F3000 R
G1 F3000 X113.218242 Y14.084649
G4 P0
M280 S-80 P0 F3000 R
G1 F1200.0 X113.218242 Y14.084649
G1 F1200.0 X113.331061 Y13.910042
G1 F1200.0 X113.443879 Y13.87831
G1 F1200.0 X113.331061 Y13.910042
G1 F1200.0 X113.218242 Y14.084649
G4 P0
M280 S90 P0 F3000 R
G1 F3000 X113.218242 Y14.084649
G4 P0
M280 S-80 P0 F3000 R
G1 F1200.0 X113.218242 Y14.084649
G1 F1200.0 X113.218242 Y15.129542
G1 F1200.0 X113.13138 Y15.373347
G1 F1200.0 X112.722836 Y15.517139
G1 F1200.0 X112.268441 Y15.395298
G1 F1200.0 X112.135461 Y15.123333
G1 F1200.0 X112.268441 Y15.395298
G1 F1200.0 X112.722836 Y15.517139
G1 F1200.0 X113.13138 Y15.373347
G1 F1200.0 X113.218242 Y15.129542
G1 F1200.0 X113.218242 Y14.084649
G4 P0
M280 S90 P0 F3000 R
G1 F3000 X112.535406 Y13.85933
G4 P0
M280 S-80 P0 F3000 R
G1 F1200.0 X112.535406 Y13.85933
G1 F1200.0 X112.938842 Y14.021987
G1 F1200.0 X113.218242 Y14.294446
G1 F1200.0 X112.938842 Y14.021987
G1 F1200.0 X112.535406 Y13.85933
G4 P0
M280 S90 P0 F3000 R
G1 F3000 X112.535406 Y13.85933
G4 P0
M280 S-80 P0 F3000 R
G1 F1200.0 X112.535406 Y13.85933
G1 F1200.0 X112.200081 Y13.945342
G1 F1200.0 X112.062401 Y14.24347
G1 F1200.0 X112.193357 Y14.567783
G1 F1200.0 X112.576751 Y14.694426
G1 F1200.0 X113.218242 Y14.821567
G1 F1200.0 X112.576751 Y14.694426
G1 F1200.0 X112.193357 Y14.567783
G1 F1200.0 X112.062401 Y14.24347
G1 F1200.0 X112.200081 Y13.945342
G1 F1200.0 X112.535406 Y13.85933
G4 P0
M280 S90 P0 F3000 R
G1 F3000 X110.602042 Y13.87831
G4 P0
M280 S-80 P0 F3000 R
G1 F1200.0 X110.602042 Y13.87831
G1 F1200.0 X109.957447 Y15.507473
G1 F1200.0 X110.602042 Y13.87831
G1 F1200.0 X111.253164 Y15.507473
G1 F1200.0 X110.602042 Y13.87831
G4 P0
M280 S90 P0 F3000 R
G1 F3000 X107.697129 Y14.710301
G4 P0
M280 S-80 P0 F3000 R
G1 F1200.0 X107.697129 Y14.710301
G1 F1200.0 X107.754368 Y15.110429
G1 F1200.0 X107.909827 Y15.36529
G1 F1200.0 X108.139119 Y15.499879
G1 F1200.0 X108.417854 Y15.539188
G1 F1200.0 X108.698082 Y15.499879
G1 F1200.0 X108.927322 Y15.36529
G1 F1200.0 X109.082089 Y15.110429
G1 F1200.0 X109.138896 Y14.710301
G1 F1200.0 X109.082089 Y14.308363
G1 F1200.0 X108.927322 Y14.052582
G1 F1200.0 X108.698082 Y13.917662
G1 F1200.0 X108.417854 Y13.87831
G1 F1200.0 X108.139119 Y13.917662
G1 F1200.0 X107.909827 Y14.052582
G1 F1200.0 X107.754368 Y14.308363
G1 F1200.0 X107.697129 Y14.710301
G4 P0
M280 S90 P0 F3000 R
G1 F3000 X105.484013 Y15.507473
G4 P0
M280 S-80 P0 F3000 R
G1 F1200.0 X105.484013 Y15.507473
G1 F1200.0 X105.484013 Y13.87831
G1 F1200.0 X105.484013 Y15.507473
G4 P0
M280 S90 P0 F3000 R
G1 F3000 X106.652907 Y15.085127
G4 P0
M280 S-80 P0 F3000 R
G1 F1200.0 X106.652907 Y15.085127
G1 F1200.0 X106.652907 Y13.87831
G1 F1200.0 X106.652907 Y15.085127
G4 P0
M280 S90 P0 F3000 R
G1 F3000 X106.652907 Y15.085127
G4 P0
M280 S-80 P0 F3000 R
G1 F1200.0 X106.652907 Y15.085127
G1 F1200.0 X106.529452 Y15.349905
G1 F1200.0 X106.10342 Y15.507473
G1 F1200.0 X105.835143 Y15.455612
G1 F1200.0 X105.641277 Y15.31658
G1 F1200.0 X105.484013 Y14.904258
G1 F1200.0 X105.641277 Y15.31658
G1 F1200.0 X105.835143 Y15.455612
G1 F1200.0 X106.10342 Y15.507473
G1 F1200.0 X106.529452 Y15.349905
G1 F1200.0 X106.652907 Y15.085127
G4 P0
M280 S90 P0 F3000 R
G1 F3000 X103.118603 Y15.507473
G4 P0
M280 S-80 P0 F3000 R
G1 F1200.0 X103.118603 Y15.507473
G1 F1200.0 X103.118603 Y13.87831
G1 F1200.0 X103.118603 Y15.507473
G4 P0
M280 S90 P0 F3000 R
G1 F3000 X104.287532 Y15.085127
G4 P0
M280 S-80 P0 F3000 R
G1 F1200.0 X104.287532 Y15.085127
G1 F1200.0 X104.287532 Y13.87831
G1 F1200.0 X104.287532 Y15.085127
G4 P0
M280 S90 P0 F3000 R
G1 F3000 X104.287532 Y15.085127
G4 P0
M280 S-80 P0 F3000 R
G1 F1200.0 X104.287532 Y15.085127
G1 F1200.0 X104.164059 Y15.349905
G1 F1200.0 X103.73801 Y15.507473
G1 F1200.0 X103.469733 Y15.455612
G1 F1200.0 X103.275866 Y15.31658
G1 F1200.0 X103.118603 Y14.904258
G1 F1200.0 X103.275866 Y15.31658
G1 F1200.0 X103.469733 Y15.455612
G1 F1200.0 X103.73801 Y15.507473
G1 F1200.0 X104.164059 Y15.349905
G1 F1200.0 X104.287532 Y15.085127
G4 P0
M280 S90 P0 F3000 R
G1 F3000 X101.909033 Y13.87831
G4 P0
M280 S-80 P0 F3000 R
G1 F1200.0 X101.909033 Y13.87831
G1 F1200.0 X101.909033 Y16.168261
G1 F1200.0 X101.909033 Y13.87831
G4 P0
M280 S90 P0 F3000 R
G1 F3000 X97.781816 Y14.710301
G4 P0
M280 S-80 P0 F3000 R
G1 F1200.0 X97.781816 Y14.710301
G1 F1200.0 X97.839049 Y15.110429
G1 F1200.0 X97.994496 Y15.36529
G1 F1200.0 X98.223776 Y15.499879
G1 F1200.0 X98.502505 Y15.539188
G1 F1200.0 X98.782754 Y15.499879
G1 F1200.0 X99.012005 Y15.36529
G1 F1200.0 X99.166775 Y15.110429
G1 F1200.0 X99.223583 Y14.710301
G1 F1200.0 X99.166775 Y14.308363
G1 F1200.0 X99.012005 Y14.052582
G1 F1200.0 X98.782754 Y13.917662
G1 F1200.0 X98.502505 Y13.87831
G1 F1200.0 X98.223776 Y13.917662
G1 F1200.0 X97.994496 Y14.052582
G1 F1200.0 X97.839049 Y14.308363
G1 F1200.0 X97.781816 Y14.710301
G4 P0
M280 S90 P0 F3000 R
G1 F3000 X96.724505 Y16.168261
G4 P0
M280 S-80 P0 F3000 R
G1 F1200.0 X96.724505 Y16.168261
G1 F1200.0 X96.724505 Y13.87831
G1 F1200.0 X96.724505 Y16.168261
G4 P0
M280 S90 P0 F3000 R
G1 F3000 X95.572474 Y15.215338
G4 P0
M280 S-80 P0 F3000 R
G1 F1200.0 X95.572474 Y15.215338
G1 F1200.0 X95.475482 Y15.398063
G1 F1200.0 X95.073611 Y15.532979
G1 F1200.0 X94.631484 Y15.447276
G1 F1200.0 X94.489341 Y15.170888
G1 F1200.0 X94.602071 Y14.913285
G1 F1200.0 X94.772163 Y14.824671
G1 F1200.0 X95.372308 Y14.646907
G1 F1200.0 X95.537064 Y14.558064
G1 F1200.0 X95.642395 Y14.307217
G1 F1200.0 X95.477118 Y14.004525
G1 F1200.0 X95.073611 Y13.87831
G1 F1200.0 X94.651468 Y13.993496
G1 F1200.0 X94.467292 Y14.294446
G1 F1200.0 X94.651468 Y13.993496
G1 F1200.0 X95.073611 Y13.87831
G1 F1200.0 X95.477118 Y14.004525
G1 F1200.0 X95.642395 Y14.307217
G1 F1200.0 X95.537064 Y14.558064
G1 F1200.0 X95.372308 Y14.646907
G1 F1200.0 X94.772163 Y14.824671
G1 F1200.0 X94.602071 Y14.913285
G1 F1200.0 X94.489341 Y15.170888
G1 F1200.0 X94.631484 Y15.447276
G1 F1200.0 X95.073611 Y15.532979
G1 F1200.0 X95.475482 Y15.398063
G1 F1200.0 X95.572474 Y15.215338
G4 P0
M280 S90 P0 F3000 R
G1 F3000 X91.536873 Y15.040677
G4 P0
M280 S-80 P0 F3000 R
G1 F1200.0 X91.536873 Y15.040677
G1 F1200.0 X91.616502 Y15.596016
G1 F1200.0 X91.833365 Y15.963266
G1 F1200.0 X92.15442 Y16.16619
G1 F1200.0 X92.546629 Y16.228551
G1 F1200.0 X92.938892 Y16.16619
G1 F1200.0 X93.260069 Y15.963266
G1 F1200.0 X93.477052 Y15.596016
G1 F1200.0 X93.556737 Y15.040677
G1 F1200.0 X93.477052 Y14.486343
G1 F1200.0 X93.260069 Y14.121338
G1 F1200.0 X92.938892 Y13.920666
G1 F1200.0 X92.546629 Y13.85933
G1 F1200.0 X92.15442 Y13.920666
G1 F1200.0 X91.833365 Y14.121338
G1 F1200.0 X91.616502 Y14.486343
G1 F1200.0 X91.536873 Y15.040677
G4 P0
M280 S90 P0 F3000 R
G1 F3000 X81.395887 Y14.748507
G4 P0
M280 S-80 P0 F3000 R
G1 F1200.0 X81.395887 Y14.748507
G1 F1200.0 X82.815606 Y14.748507
G1 F1200.0 X82.682539 Y15.282387
G1 F1200.0 X82.484523 Y15.475954
G1 F1200.0 X82.170693 Y15.551923
G1 F1200.0 X81.837526 Y15.490174
G1 F1200.0 X81.593633 Y15.315028
G1 F1200.0 X81.443792 Y15.041636
G1 F1200.0 X81.392783 Y14.685148
G1 F1200.0 X81.454934 Y14.336751
G1 F1200.0 X81.623345 Y14.085518
G1 F1200.0 X81.870953 Y13.935575
G1 F1200.0 X82.170693 Y13.891045
G1 F1200.0 X82.638058 Y14.082061
G1 F1200.0 X82.802871 Y14.351632
G1 F1200.0 X82.638058 Y14.082061
G1 F1200.0 X82.170693 Y13.891045
G1 F1200.0 X81.870953 Y13.935575
G1 F1200.0 X81.623345 Y14.085518
G1 F1200.0 X81.454934 Y14.336751
G1 F1200.0 X81.392783 Y14.685148
G1 F1200.0 X81.443792 Y15.041636
G1 F1200.0 X81.593633 Y15.315028
G1 F1200.0 X81.837526 Y15.490174
G1 F1200.0 X82.170693 Y15.551923
G1 F1200.0 X82.484523 Y15.475954
G1 F1200.0 X82.682539 Y15.282387
G1 F1200.0 X82.815606 Y14.748507
G1 F1200.0 X81.395887 Y14.748507
G4 P0
M280 S90 P0 F3000 R
G1 F3000 X79.205173 Y13.547898
G4 P0
M280 S-80 P0 F3000 R
G1 F1200.0 X79.205173 Y13.547898
G1 F1200.0 X79.391501 Y13.325697
G1 F1200.0 X79.789443 Y13.236819
G1 F1200.0 X80.242948 Y13.384469
G1 F1200.0 X80.395164 Y13.553014
G1 F1200.0 X80.453301 Y13.760799
G1 F1200.0 X80.453301 Y15.498159
G1 F1200.0 X80.453301 Y13.760799
G1 F1200.0 X80.395164 Y13.553014
G1 F1200.0 X80.242948 Y13.384469
G1 F1200.0 X79.789443 Y13.236819
G1 F1200.0 X79.391501 Y13.325697
G1 F1200.0 X79.205173 Y13.547898
G4 P0
M280 S90 P0 F3000 R
G1 F3000 X79.78013 Y15.523313
G4 P0
M280 S-80 P0 F3000 R
G1 F1200.0 X79.78013 Y15.523313
G1 F1200.0 X80.040689 Y15.484646
G1 F1200.0 X80.254828 Y15.351933
G1 F1200.0 X80.39991 Y15.100105
G1 F1200.0 X80.453301 Y14.704092
G1 F1200.0 X80.39991 Y14.308018
G1 F1200.0 X80.254828 Y14.056057
G1 F1200.0 X80.040689 Y13.923211
G1 F1200.0 X79.78013 Y13.884483
G1 F1200.0 X79.519922 Y13.923211
G1 F1200.0 X79.306865 Y14.056057
G1 F1200.0 X79.162925 Y14.308018
G1 F1200.0 X79.110064 Y14.704092
G1 F1200.0 X79.162925 Y15.100105
G1 F1200.0 X79.306865 Y15.351933
G1 F1200.0 X79.519922 Y15.484646
G1 F1200.0 X79.78013 Y15.523313
G4 P0
M280 S90 P0 F3000 R
G1 F3000 X77.757514 Y13.87831
G4 P0
M280 S-80 P0 F3000 R
G1 F1200.0 X77.757514 Y13.87831
G1 F1200.0 X77.757514 Y15.507473
G1 F1200.0 X77.757514 Y13.87831
G4 P0
M280 S90 P0 F3000 R
G1 F3000 X77.757514 Y14.710301
G4 P0
M280 S-80 P0 F3000 R
G1 F1200.0 X77.757514 Y14.710301
G1 F1200.0 X77.954329 Y15.246986
G1 F1200.0 X78.15673 Y15.435575
G1 F1200.0 X78.380061 Y15.507473
G1 F1200.0 X78.15673 Y15.435575
G1 F1200.0 X77.954329 Y15.246986
G1 F1200.0 X77.757514 Y14.710301
G4 P0
M280 S90 P0 F3000 R
G1 F3000 X75.208165 Y14.710301
G4 P0
M280 S-80 P0 F3000 R
G1 F1200.0 X75.208165 Y14.710301
G1 F1200.0 X75.265399 Y15.110429
G1 F1200.0 X75.420846 Y15.36529
G1 F1200.0 X75.650125 Y15.499879
G1 F1200.0 X75.928855 Y15.539188
G1 F1200.0 X76.209104 Y15.499879
G1 F1200.0 X76.438354 Y15.36529
G1 F1200.0 X76.593125 Y15.110429
G1 F1200.0 X76.649933 Y14.710301
G1 F1200.0 X76.593125 Y14.308363
G1 F1200.0 X76.438354 Y14.052582
G1 F1200.0 X76.209104 Y13.917662
G1 F1200.0 X75.928855 Y13.87831
G1 F1200.0 X75.650125 Y13.917662
G1 F1200.0 X75.420846 Y14.052582
G1 F1200.0 X75.265399 Y14.308363
G1 F1200.0 X75.208165 Y14.710301
G4 P0
M280 S90 P0 F3000 R
G1 F3000 X72.436249 Y16.168261
G4 P0
M280 S-80 P0 F3000 R
G1 F1200.0 X72.436249 Y16.168261
G1 F1200.0 X72.436249 Y13.87831
G1 F1200.0 X72.436249 Y16.168261
G4 P0
M280 S90 P0 F3000 R
G1 F3000 X72.436249 Y16.168261
G4 P0
M280 S-80 P0 F3000 R
G1 F1200.0 X72.436249 Y16.168261
G1 F1200.0 X74.068869 Y13.87831
G1 F1200.0 X74.068869 Y16.168261
G1 F1200.0 X74.068869 Y13.87831
G1 F1200.0 X72.436249 Y16.168261
G4 P0
M280 S90 P0 F3000 R
G1 F3000 X68.419945 Y15.507473
G4 P0
M280 S-80 P0 F3000 R
G1 F1200.0 X68.419945 Y15.507473
G1 F1200.0 X68.419945 Y13.87831
G1 F1200.0 X68.419945 Y15.507473
G4 P0
M280 S90 P0 F3000 R
G1 F3000 X69.588874 Y15.085127
G4 P0
M280 S-80 P0 F3000 R
G1 F1200.0 X69.588874 Y15.085127
G1 F1200.0 X69.588874 Y13.87831
G1 F1200.0 X69.588874 Y15.085127
G4 P0
M280 S90 P0 F3000 R
G1 F3000 X69.588874 Y15.085127
G4 P0
M280 S-80 P0 F3000 R
G1 F1200.0 X69.588874 Y15.085127
G1 F1200.0 X69.465402 Y15.349905
G1 F1200.0 X69.039352 Y15.507473
G1 F1200.0 X68.771075 Y15.455612
G1 F1200.0 X68.577209 Y15.31658
G1 F1200.0 X68.419945 Y14.904258
G1 F1200.0 X68.577209 Y15.31658
G1 F1200.0 X68.771075 Y15.455612
G1 F1200.0 X69.039352 Y15.507473
G1 F1200.0 X69.465402 Y15.349905
G1 F1200.0 X69.588874 Y15.085127
G4 P0
M280 S90 P0 F3000 R
G1 F3000 X65.880227 Y14.710301
G4 P0
M280 S-80 P0 F3000 R
G1 F1200.0 X65.880227 Y14.710301
G1 F1200.0 X65.937461 Y15.110429
G1 F1200.0 X66.092908 Y15.36529
G1 F1200.0 X66.322187 Y15.499879
G1 F1200.0 X66.600917 Y15.539188
G1 F1200.0 X66.881166 Y15.499879
G1 F1200.0 X67.110416 Y15.36529
G1 F1200.0 X67.265186 Y15.110429
G1 F1200.0 X67.321994 Y14.710301
G1 F1200.0 X67.265186 Y14.308363
G1 F1200.0 X67.110416 Y14.052582
G1 F1200.0 X66.881166 Y13.917662
G1 F1200.0 X66.600917 Y13.87831
G1 F1200.0 X66.322187 Y13.917662
G1 F1200.0 X66.092908 Y14.052582
G1 F1200.0 X65.937461 Y14.308363
G1 F1200.0 X65.880227 Y14.710301
G4 P0
M280 S90 P0 F3000 R
G1 F3000 X64.822917 Y16.171365
G4 P0
M280 S-80 P0 F3000 R
G1 F1200.0 X64.822917 Y16.171365
G1 F1200.0 X64.822917 Y16.114145
G1 F1200.0 X64.822917 Y16.171365
G4 P0
M280 S90 P0 F3000 R
G1 F3000 X64.527677 Y13.246132
G4 P0
M280 S-80 P0 F3000 R
G1 F1200.0 X64.527677 Y13.246132
G1 F1200.0 X64.774132 Y13.33635
G1 F1200.0 X64.822917 Y13.557564
G1 F1200.0 X64.822917 Y15.514034
G1 F1200.0 X64.822917 Y13.557564
G1 F1200.0 X64.774132 Y13.33635
G1 F1200.0 X64.527677 Y13.246132
G4 P0
M280 S90 P0 F3000 R
G1 F3000 X63.219577 Y15.532979
G4 P0
M280 S-80 P0 F3000 R
G1 F1200.0 X63.219577 Y15.532979
G1 F1200.0 X63.621431 Y15.398063
G1 F1200.0 X63.718405 Y15.215338
G1 F1200.0 X63.621431 Y15.398063
G1 F1200.0 X63.219577 Y15.532979
G4 P0
M280 S90 P0 F3000 R
G1 F3000 X63.219577 Y15.532979
G4 P0
M280 S-80 P0 F3000 R
G1 F1200.0 X63.219577 Y15.532979
G1 F1200.0 X62.777432 Y15.447276
G1 F1200.0 X62.635271 Y15.170888
G1 F1200.0 X62.748019 Y14.913285
G1 F1200.0 X62.918128 Y14.824671
G1 F1200.0 X63.518274 Y14.646907
G1 F1200.0 X63.68303 Y14.558064
G1 F1200.0 X63.788361 Y14.307217
G1 F1200.0 X63.623084 Y14.004525
G1 F1200.0 X63.219577 Y13.87831
G1 F1200.0 X62.797417 Y13.993496
G1 F1200.0 X62.613222 Y14.294446
G1 F1200.0 X62.797417 Y13.993496
G1 F1200.0 X63.219577 Y13.87831
G1 F1200.0 X63.623084 Y14.004525
G1 F1200.0 X63.788361 Y14.307217
G1 F1200.0 X63.68303 Y14.558064
G1 F1200.0 X63.518274 Y14.646907
G1 F1200.0 X62.918128 Y14.824671
G1 F1200.0 X62.748019 Y14.913285
G1 F1200.0 X62.635271 Y15.170888
G1 F1200.0 X62.777432 Y15.447276
G1 F1200.0 X63.219577 Y15.532979
G4 P0
M280 S90 P0 F3000 R
G1 F3000 X61.508393 Y14.084649
G4 P0
M280 S-80 P0 F3000 R
G1 F1200.0 X61.508393 Y14.084649
G1 F1200.0 X61.621211 Y13.910042
G1 F1200.0 X61.73403 Y13.87831
G1 F1200.0 X61.621211 Y13.910042
G1 F1200.0 X61.508393 Y14.084649
G4 P0
M280 S90 P0 F3000 R
G1 F3000 X61.508393 Y14.084649
G4 P0
M280 S-80 P0 F3000 R
G1 F1200.0 X61.508393 Y14.084649
G1 F1200.0 X61.508393 Y15.129542
G1 F1200.0 X61.42153 Y15.373347
G1 F1200.0 X61.012987 Y15.517139
G1 F1200.0 X60.558592 Y15.395298
G1 F1200.0 X60.425612 Y15.123333
G1 F1200.0 X60.558592 Y15.395298
G1 F1200.0 X61.012987 Y15.517139
G1 F1200.0 X61.42153 Y15.373347
G1 F1200.0 X61.508393 Y15.129542
G1 F1200.0 X61.508393 Y14.084649
G4 P0
M280 S90 P0 F3000 R
G1 F3000 X60.825556 Y13.85933
G4 P0
M280 S-80 P0 F3000 R
G1 F1200.0 X60.825556 Y13.85933
G1 F1200.0 X61.228993 Y14.021987
G1 F1200.0 X61.508393 Y14.294446
G1 F1200.0 X61.228993 Y14.021987
G1 F1200.0 X60.825556 Y13.85933
G4 P0
M280 S90 P0 F3000 R
G1 F3000 X60.825556 Y13.85933
G4 P0
M280 S-80 P0 F3000 R
G1 F1200.0 X60.825556 Y13.85933
G1 F1200.0 X60.490232 Y13.945342
G1 F1200.0 X60.352552 Y14.24347
G1 F1200.0 X60.483507 Y14.567783
G1 F1200.0 X60.866902 Y14.694426
G1 F1200.0 X61.508393 Y14.821567
G1 F1200.0 X60.866902 Y14.694426
G1 F1200.0 X60.483507 Y14.567783
G1 F1200.0 X60.352552 Y14.24347
G1 F1200.0 X60.490232 Y13.945342
G1 F1200.0 X60.825556 Y13.85933
G4 P0
M280 S90 P0 F3000 R
G1 F3000 X59.606709 Y15.507473
G4 P0
M280 S-80 P0 F3000 R
G1 F1200.0 X59.606709 Y15.507473
G1 F1200.0 X58.955587 Y13.87831
G1 F1200.0 X58.310992 Y15.507473
G1 F1200.0 X58.955587 Y13.87831
G1 F1200.0 X59.606709 Y15.507473
G4 P0
M280 S90 P0 F3000 R
G1 F3000 X56.050674 Y14.710301
G4 P0
M280 S-80 P0 F3000 R
G1 F1200.0 X56.050674 Y14.710301
G1 F1200.0 X56.107908 Y15.110429
G1 F1200.0 X56.263359 Y15.36529
G1 F1200.0 X56.492649 Y15.499879
G1 F1200.0 X56.771399 Y15.539188
G1 F1200.0 X57.051627 Y15.499879
G1 F1200.0 X57.280867 Y15.36529
G1 F1200.0 X57.435634 Y15.110429
G1 F1200.0 X57.492441 Y14.710301
G1 F1200.0 X57.435634 Y14.308363
G1 F1200.0 X57.280867 Y14.052582
G1 F1200.0 X57.051627 Y13.917662
G1 F1200.0 X56.771399 Y13.87831
G1 F1200.0 X56.492649 Y13.917662
G1 F1200.0 X56.263359 Y14.052582
G1 F1200.0 X56.107908 Y14.308363
G1 F1200.0 X56.050674 Y14.710301
G4 P0
M280 S90 P0 F3000 R
G1 F3000 X53.900917 Y15.507473
G4 P0
M280 S-80 P0 F3000 R
G1 F1200.0 X53.900917 Y15.507473
G1 F1200.0 X53.900917 Y13.87831
G1 F1200.0 X53.900917 Y15.507473
G4 P0
M280 S90 P0 F3000 R
G1 F3000 X55.069846 Y15.085127
G4 P0
M280 S-80 P0 F3000 R
G1 F1200.0 X55.069846 Y15.085127
G1 F1200.0 X55.069846 Y13.87831
G1 F1200.0 X55.069846 Y15.085127
G4 P0
M280 S90 P0 F3000 R
G1 F3000 X55.069846 Y15.085127
G4 P0
M280 S-80 P0 F3000 R
G1 F1200.0 X55.069846 Y15.085127
G1 F1200.0 X54.946391 Y15.349905
G1 F1200.0 X54.520359 Y15.507473
G1 F1200.0 X54.252077 Y15.455612
G1 F1200.0 X54.058198 Y15.31658
G1 F1200.0 X53.900917 Y14.904258
G1 F1200.0 X54.058198 Y15.31658
G1 F1200.0 X54.252077 Y15.455612
G1 F1200.0 X54.520359 Y15.507473
G1 F1200.0 X54.946391 Y15.349905
G1 F1200.0 X55.069846 Y15.085127
G4 P0
M280 S90 P0 F3000 R
G1 F3000 X51.599253 Y13.87831
G4 P0
M280 S-80 P0 F3000 R
G1 F1200.0 X51.599253 Y13.87831
G1 F1200.0 X51.599253 Y15.507473
G1 F1200.0 X51.599253 Y13.87831
G4 P0
M280 S90 P0 F3000 R
G1 F3000 X52.768183 Y13.87831
G4 P0
M280 S-80 P0 F3000 R
G1 F1200.0 X52.768183 Y13.87831
G1 F1200.0 X52.768183 Y15.085127
G1 F1200.0 X52.644715 Y15.349905
G1 F1200.0 X52.218696 Y15.507473
G1 F1200.0 X51.950398 Y15.455612
G1 F1200.0 X51.756522 Y15.31658
G1 F1200.0 X51.599253 Y14.904258
G1 F1200.0 X51.756522 Y15.31658
G1 F1200.0 X51.950398 Y15.455612
G1 F1200.0 X52.218696 Y15.507473
G1 F1200.0 X52.644715 Y15.349905
G1 F1200.0 X52.768183 Y15.085127
G1 F1200.0 X52.768183 Y13.87831
G4 P0
M280 S90 P0 F3000 R
G1 F3000 X50.262578 Y13.87831
G4 P0
M280 S-80 P0 F3000 R
G1 F1200.0 X50.262578 Y13.87831
G1 F1200.0 X50.262578 Y16.168261
G1 F1200.0 X50.262578 Y13.87831
G4 P0
M280 S90 P0 F3000 R
G1 F3000 X39.778799 Y14.748507
G4 P0
M280 S-80 P0 F3000 R
G1 F1200.0 X39.778799 Y14.748507
G1 F1200.0 X41.198518 Y14.748507
G1 F1200.0 X41.06545 Y15.282387
G1 F1200.0 X40.867435 Y15.475954
G1 F1200.0 X40.553605 Y15.551923
G1 F1200.0 X40.220438 Y15.490174
G1 F1200.0 X39.976544 Y15.315028
G1 F1200.0 X39.826703 Y15.041636
G1 F1200.0 X39.775694 Y14.685148
G1 F1200.0 X39.837846 Y14.336751
G1 F1200.0 X40.006257 Y14.085518
G1 F1200.0 X40.253864 Y13.935575
G1 F1200.0 X40.553605 Y13.891045
G1 F1200.0 X41.020969 Y14.082061
G1 F1200.0 X41.185782 Y14.351632
G1 F1200.0 X41.020969 Y14.082061
G1 F1200.0 X40.553605 Y13.891045
G1 F1200.0 X40.253864 Y13.935575
G1 F1200.0 X40.006257 Y14.085518
G1 F1200.0 X39.837846 Y14.336751
G1 F1200.0 X39.775694 Y14.685148
G1 F1200.0 X39.826703 Y15.041636
G1 F1200.0 X39.976544 Y15.315028
G1 F1200.0 X40.220438 Y15.490174
G1 F1200.0 X40.553605 Y15.551923
G1 F1200.0 X40.867435 Y15.475954
G1 F1200.0 X41.06545 Y15.282387
G1 F1200.0 X41.198518 Y14.748507
G1 F1200.0 X39.778799 Y14.748507
G4 P0
M280 S90 P0 F3000 R
G1 F3000 X37.689684 Y15.507473
G4 P0
M280 S-80 P0 F3000 R
G1 F1200.0 X37.689684 Y15.507473
G1 F1200.0 X37.689684 Y13.87831
G1 F1200.0 X37.689684 Y15.507473
G4 P0
M280 S90 P0 F3000 R
G1 F3000 X38.858613 Y15.085127
G4 P0
M280 S-80 P0 F3000 R
G1 F1200.0 X38.858613 Y15.085127
G1 F1200.0 X38.858613 Y13.87831
G1 F1200.0 X38.858613 Y15.085127
G4 P0
M280 S90 P0 F3000 R
G1 F3000 X38.858613 Y15.085127
G4 P0
M280 S-80 P0 F3000 R
G1 F1200.0 X38.858613 Y15.085127
G1 F1200.0 X38.735146 Y15.349905
G1 F1200.0 X38.309127 Y15.507473
G1 F1200.0 X38.040829 Y15.455612
G1 F1200.0 X37.846953 Y15.31658
G1 F1200.0 X37.689684 Y14.904258
G1 F1200.0 X37.846953 Y15.31658
G1 F1200.0 X38.040829 Y15.455612
G1 F1200.0 X38.309127 Y15.507473
G1 F1200.0 X38.735146 Y15.349905
G1 F1200.0 X38.858613 Y15.085127
G4 P0
M280 S90 P0 F3000 R
G1 F3000 X36.493556 Y13.881379
G4 P0
M280 S-80 P0 F3000 R
G1 F1200.0 X36.493556 Y13.881379
G1 F1200.0 X36.493556 Y15.514034
G1 F1200.0 X36.493556 Y13.881379
G4 P0
M280 S90 P0 F3000 R
G1 F3000 X35.321522 Y14.30376
G4 P0
M280 S-80 P0 F3000 R
G1 F1200.0 X35.321522 Y14.30376
G1 F1200.0 X35.321522 Y15.514034
G1 F1200.0 X35.321522 Y14.30376
G4 P0
M280 S90 P0 F3000 R
G1 F3000 X35.321522 Y14.30376
G4 P0
M280 S-80 P0 F3000 R
G1 F1200.0 X35.321522 Y14.30376
G1 F1200.0 X35.44499 Y14.038951
G1 F1200.0 X35.871009 Y13.881379
G1 F1200.0 X36.139791 Y13.933315
G1 F1200.0 X36.334735 Y14.072479
G1 F1200.0 X36.493556 Y14.484982
G1 F1200.0 X36.334735 Y14.072479
G1 F1200.0 X36.139791 Y13.933315
G1 F1200.0 X35.871009 Y13.881379
G1 F1200.0 X35.44499 Y14.038951
G1 F1200.0 X35.321522 Y14.30376
G4 P0
M280 S90 P0 F3000 R
G1 F3000 X34.191892 Y13.87831
G4 P0
M280 S-80 P0 F3000 R
G1 F1200.0 X34.191892 Y13.87831
G1 F1200.0 X34.191892 Y15.085127
G1 F1200.0 X34.071569 Y15.349905
G1 F1200.0 X33.648932 Y15.507473
G1 F1200.0 X33.39289 Y15.455612
G1 F1200.0 X33.222913 Y15.31658
G1 F1200.0 X33.099446 Y14.904258
G1 F1200.0 X33.222913 Y15.31658
G1 F1200.0 X33.39289 Y15.455612
G1 F1200.0 X33.648932 Y15.507473
G1 F1200.0 X34.071569 Y15.349905
G1 F1200.0 X34.191892 Y15.085127
G1 F1200.0 X34.191892 Y13.87831
G4 P0
M280 S90 P0 F3000 R
G1 F3000 X32.016312 Y13.87831
G4 P0
M280 S-80 P0 F3000 R
G1 F1200.0 X32.016312 Y13.87831
G1 F1200.0 X32.016312 Y15.507473
G1 F1200.0 X32.016312 Y13.87831
G4 P0
M280 S90 P0 F3000 R
G1 F3000 X33.099446 Y13.87831
G4 P0
M280 S-80 P0 F3000 R
G1 F1200.0 X33.099446 Y13.87831
G1 F1200.0 X33.099446 Y15.085127
G1 F1200.0 X33.001303 Y15.349905
G1 F1200.0 X32.600583 Y15.507473
G1 F1200.0 X32.339254 Y15.455612
G1 F1200.0 X32.157304 Y15.31658
G1 F1200.0 X32.016312 Y14.904258
G1 F1200.0 X32.157304 Y15.31658
G1 F1200.0 X32.339254 Y15.455612
G1 F1200.0 X32.600583 Y15.507473
G1 F1200.0 X33.001303 Y15.349905
G1 F1200.0 X33.099446 Y15.085127
G1 F1200.0 X33.099446 Y13.87831
G4 P0
M280 S90 P0 F3000 R
G1 F3000 X30.832566 Y15.085127
G4 P0
M280 S-80 P0 F3000 R
G1 F1200.0 X30.832566 Y15.085127
G1 F1200.0 X30.832566 Y13.87831
G1 F1200.0 X30.832566 Y15.085127
G4 P0
M280 S90 P0 F3000 R
G1 F3000 X30.832566 Y15.085127
G4 P0
M280 S-80 P0 F3000 R
G1 F1200.0 X30.832566 Y15.085127
G1 F1200.0 X30.712247 Y15.349905
G1 F1200.0 X30.289641 Y15.507473
G1 F1200.0 X30.033578 Y15.455612
G1 F1200.0 X29.863591 Y15.31658
G1 F1200.0 X29.740119 Y14.904258
G1 F1200.0 X29.863591 Y15.31658
G1 F1200.0 X30.033578 Y15.455612
G1 F1200.0 X30.289641 Y15.507473
G1 F1200.0 X30.712247 Y15.349905
G1 F1200.0 X30.832566 Y15.085127
G4 P0
M280 S90 P0 F3000 R
G1 F3000 X28.656986 Y15.507473
G4 P0
M280 S-80 P0 F3000 R
G1 F1200.0 X28.656986 Y15.507473
G1 F1200.0 X28.656986 Y13.87831
G1 F1200.0 X28.656986 Y15.507473
G4 P0
M280 S90 P0 F3000 R
G1 F3000 X29.740119 Y15.085127
G4 P0
M280 S-80 P0 F3000 R
G1 F1200.0 X29.740119 Y15.085127
G1 F1200.0 X29.740119 Y13.87831
G1 F1200.0 X29.740119 Y15.085127
G4 P0
M280 S90 P0 F3000 R
G1 F3000 X29.740119 Y15.085127
G4 P0
M280 S-80 P0 F3000 R
G1 F1200.0 X29.740119 Y15.085127
G1 F1200.0 X29.64202 Y15.349905
G1 F1200.0 X29.241609 Y15.507473
G1 F1200.0 X28.980077 Y15.455612
G1 F1200.0 X28.798022 Y15.31658
G1 F1200.0 X28.656986 Y14.904258
G1 F1200.0 X28.798022 Y15.31658
G1 F1200.0 X28.980077 Y15.455612
G1 F1200.0 X29.241609 Y15.507473
G1 F1200.0 X29.64202 Y15.349905
G1 F1200.0 X29.740119 Y15.085127
G4 P0
M280 S90 P0 F3000 R
G1 F3000 X26.117268 Y14.710301
G4 P0
M280 S-80 P0 F3000 R
G1 F1200.0 X26.117268 Y14.710301
G1 F1200.0 X26.174507 Y15.110429
G1 F1200.0 X26.329966 Y15.36529
G1 F1200.0 X26.559258 Y15.499879
G1 F1200.0 X26.837993 Y15.539188
G1 F1200.0 X27.118221 Y15.499879
G1 F1200.0 X27.347461 Y15.36529
G1 F1200.0 X27.502228 Y15.110429
G1 F1200.0 X27.559035 Y14.710301
G1 F1200.0 X27.502228 Y14.308363
G1 F1200.0 X27.347461 Y14.052582
G1 F1200.0 X27.118221 Y13.917662
G1 F1200.0 X26.837993 Y13.87831
G1 F1200.0 X26.559258 Y13.917662
G1 F1200.0 X26.329966 Y14.052582
G1 F1200.0 X26.174507 Y14.308363
G1 F1200.0 X26.117268 Y14.710301
G4 P0
M280 S90 P0 F3000 R
G1 F3000 X24.104283 Y13.87831
G4 P0
M280 S-80 P0 F3000 R
G1 F1200.0 X24.104283 Y13.87831
G1 F1200.0 X24.104283 Y14.519766
G1 F1200.0 X25.127162 Y15.507473
G1 F1200.0 X24.542503 Y14.945251
G1 F1200.0 X25.234971 Y13.87831
G1 F1200.0 X24.542503 Y14.945251
G1 F1200.0 X24.104283 Y14.519766
G1 F1200.0 X24.104283 Y16.168261
G1 F1200.0 X24.104283 Y13.87831
G4 P0
M280 S90 P0 F3000 R
G1 F3000 X19.977065 Y14.710301
G4 P0
M280 S-80 P0 F3000 R
G1 F1200.0 X19.977065 Y14.710301
G1 F1200.0 X20.034304 Y15.110429
G1 F1200.0 X20.189763 Y15.36529
G1 F1200.0 X20.419054 Y15.499879
G1 F1200.0 X20.69779 Y15.539188
G1 F1200.0 X20.978033 Y15.499879
G1 F1200.0 X21.207271 Y15.36529
G1 F1200.0 X21.362029 Y15.110429
G1 F1200.0 X21.418832 Y14.710301
G1 F1200.0 X21.362029 Y14.308363
G1 F1200.0 X21.207271 Y14.052582
G1 F1200.0 X20.978033 Y13.917662
G1 F1200.0 X20.69779 Y13.87831
G1 F1200.0 X20.419054 Y13.917662
G1 F1200.0 X20.189763 Y14.052582
G1 F1200.0 X20.034304 Y14.308363
G1 F1200.0 X19.977065 Y14.710301
G4 P0
M280 S90 P0 F3000 R
G1 F3000 X18.91979 Y16.168261
G4 P0
M280 S-80 P0 F3000 R
G1 F1200.0 X18.91979 Y16.168261
G1 F1200.0 X18.91979 Y13.87831
G1 F1200.0 X18.91979 Y16.168261
G4 P0
M280 S90 P0 F3000 R
G1 F3000 X17.268896 Y15.532979
G4 P0
M280 S-80 P0 F3000 R
G1 F1200.0 X17.268896 Y15.532979
G1 F1200.0 X17.670749 Y15.398063
G1 F1200.0 X17.767723 Y15.215338
G1 F1200.0 X17.670749 Y15.398063
G1 F1200.0 X17.268896 Y15.532979
G4 P0
M280 S90 P0 F3000 R
G1 F3000 X17.268896 Y15.532979
G4 P0
M280 S-80 P0 F3000 R
G1 F1200.0 X17.268896 Y15.532979
G1 F1200.0 X16.82675 Y15.447276
G1 F1200.0 X16.68459 Y15.170888
G1 F1200.0 X16.797338 Y14.913285
G1 F1200.0 X16.967447 Y14.824671
G1 F1200.0 X17.567592 Y14.646907
G1 F1200.0 X17.732349 Y14.558064
G1 F1200.0 X17.837679 Y14.307217
G1 F1200.0 X17.672403 Y14.004525
G1 F1200.0 X17.268896 Y13.87831
G1 F1200.0 X16.846735 Y13.993496
G1 F1200.0 X16.662541 Y14.294446
G1 F1200.0 X16.846735 Y13.993496
G1 F1200.0 X17.268896 Y13.87831
G1 F1200.0 X17.672403 Y14.004525
G1 F1200.0 X17.837679 Y14.307217
G1 F1200.0 X17.732349 Y14.558064
G1 F1200.0 X17.567592 Y14.646907
G1 F1200.0 X16.967447 Y14.824671
G1 F1200.0 X16.797338 Y14.913285
G1 F1200.0 X16.68459 Y15.170888
G1 F1200.0 X16.82675 Y15.447276
G1 F1200.0 X17.268896 Y15.532979
G4 P0
M280 S90 P0 F3000 R
G1 F3000 X13.731804 Y15.040677
G4 P0
M280 S-80 P0 F3000 R
G1 F1200.0 X13.731804 Y15.040677
G1 F1200.0 X13.811434 Y15.596016
G1 F1200.0 X14.028297 Y15.963266
G1 F1200.0 X14.349352 Y16.16619
G1 F1200.0 X14.74156 Y16.228551
G1 F1200.0 X15.133824 Y16.16619
G1 F1200.0 X15.455 Y15.963266
G1 F1200.0 X15.671984 Y15.596016
G1 F1200.0 X15.751669 Y15.040677
G1 F1200.0 X15.671984 Y14.486343
G1 F1200.0 X15.455 Y14.121338
G1 F1200.0 X15.133824 Y13.920666
G1 F1200.0 X14.74156 Y13.85933
G1 F1200.0 X14.349352 Y13.920666
G1 F1200.0 X14.028297 Y14.121338
G1 F1200.0 X13.811434 Y14.486343
G1 F1200.0 X13.731804 Y15.040677
G4 P0
M280 S90 P0 F3000 R
G1 F3000 X109.458266 Y23.050532
G4 P0
M280 S-80 P0 F3000 R
G1 F1200.0 X109.458266 Y23.050532
G1 F1200.0 X109.458266 Y23.225192
G1 F1200.0 X109.458266 Y23.050532
G4 P0
M280 S90 P0 F3000 R
G1 F3000 X109.458266 Y24.054079
G4 P0
M280 S-80 P0 F3000 R
G1 F1200.0 X109.458266 Y24.054079
G1 F1200.0 X109.458266 Y24.228739
G1 F1200.0 X109.458266 Y24.054079
G4 P0
M280 S90 P0 F3000 R
G1 F3000 X108.306235 Y24.38756
G4 P0
M280 S-80 P0 F3000 R
G1 F1200.0 X108.306235 Y24.38756
G1 F1200.0 X108.209243 Y24.570285
G1 F1200.0 X107.807372 Y24.705201
G1 F1200.0 X107.365244 Y24.619498
G1 F1200.0 X107.223101 Y24.34311
G1 F1200.0 X107.335832 Y24.085507
G1 F1200.0 X107.505923 Y23.996894
G1 F1200.0 X108.106069 Y23.819129
G1 F1200.0 X108.270825 Y23.730286
G1 F1200.0 X108.376156 Y23.479439
G1 F1200.0 X108.210879 Y23.176747
G1 F1200.0 X107.807372 Y23.050532
G1 F1200.0 X107.385229 Y23.165718
G1 F1200.0 X107.201053 Y23.466669
G1 F1200.0 X107.385229 Y23.165718
G1 F1200.0 X107.807372 Y23.050532
G1 F1200.0 X108.210879 Y23.176747
G1 F1200.0 X108.376156 Y23.479439
G1 F1200.0 X108.270825 Y23.730286
G1 F1200.0 X108.106069 Y23.819129
G1 F1200.0 X107.505923 Y23.996894
G1 F1200.0 X107.335832 Y24.085507
G1 F1200.0 X107.223101 Y24.34311
G1 F1200.0 X107.365244 Y24.619498
G1 F1200.0 X107.807372 Y24.705201
G1 F1200.0 X108.209243 Y24.570285
G1 F1200.0 X108.306235 Y24.38756
G4 P0
M280 S90 P0 F3000 R
G1 F3000 X105.785109 Y23.050532
G4 P0
M280 S-80 P0 F3000 R
G1 F1200.0 X105.785109 Y23.050532
G1 F1200.0 X105.785109 Y24.679695
G1 F1200.0 X105.785109 Y23.050532
G4 P0
M280 S90 P0 F3000 R
G1 F3000 X105.785109 Y23.882523
G4 P0
M280 S-80 P0 F3000 R
G1 F1200.0 X105.785109 Y23.882523
G1 F1200.0 X105.981892 Y24.419208
G1 F1200.0 X106.18429 Y24.607797
G1 F1200.0 X106.40762 Y24.679695
G1 F1200.0 X106.18429 Y24.607797
G1 F1200.0 X105.981892 Y24.419208
G1 F1200.0 X105.785109 Y23.882523
G4 P0
M280 S90 P0 F3000 R
G1 F3000 X104.648917 Y23.920729
G4 P0
M280 S-80 P0 F3000 R
G1 F1200.0 X104.648917 Y23.920729
G1 F1200.0 X103.229198 Y23.920729
G1 F1200.0 X104.648917 Y23.920729
G4 P0
M280 S90 P0 F3000 R
G1 F3000 X104.648917 Y23.920729
G4 P0
M280 S-80 P0 F3000 R
G1 F1200.0 X104.648917 Y23.920729
G1 F1200.0 X104.515849 Y24.45461
G1 F1200.0 X104.317834 Y24.648176
G1 F1200.0 X104.004004 Y24.724145
G1 F1200.0 X103.670837 Y24.662396
G1 F1200.0 X103.426944 Y24.48725
G1 F1200.0 X103.277103 Y24.213858
G1 F1200.0 X103.226094 Y23.85737
G1 F1200.0 X103.288245 Y23.508973
G1 F1200.0 X103.456656 Y23.25774
G1 F1200.0 X103.704264 Y23.107797
G1 F1200.0 X104.004004 Y23.063267
G1 F1200.0 X104.471364 Y23.254283
G1 F1200.0 X104.636147 Y23.523854
G1 F1200.0 X104.471364 Y23.254283
G1 F1200.0 X104.004004 Y23.063267
G1 F1200.0 X103.704264 Y23.107797
G1 F1200.0 X103.456656 Y23.25774
G1 F1200.0 X103.288245 Y23.508973
G1 F1200.0 X103.226094 Y23.85737
G1 F1200.0 X103.277103 Y24.213858
G1 F1200.0 X103.426944 Y24.48725
G1 F1200.0 X103.670837 Y24.662396
G1 F1200.0 X104.004004 Y24.724145
G1 F1200.0 X104.317834 Y24.648176
G1 F1200.0 X104.515849 Y24.45461
G1 F1200.0 X104.648917 Y23.920729
G4 P0
M280 S90 P0 F3000 R
G1 F3000 X101.076689 Y24.679695
G4 P0
M280 S-80 P0 F3000 R
G1 F1200.0 X101.076689 Y24.679695
G1 F1200.0 X101.076689 Y23.050532
G1 F1200.0 X101.076689 Y24.679695
G4 P0
M280 S90 P0 F3000 R
G1 F3000 X102.245619 Y24.257349
G4 P0
M280 S-80 P0 F3000 R
G1 F1200.0 X102.245619 Y24.257349
G1 F1200.0 X102.245619 Y23.050532
G1 F1200.0 X102.245619 Y24.257349
G4 P0
M280 S90 P0 F3000 R
G1 F3000 X102.245619 Y24.257349
G4 P0
M280 S-80 P0 F3000 R
G1 F1200.0 X102.245619 Y24.257349
G1 F1200.0 X102.122151 Y24.522127
G1 F1200.0 X101.696132 Y24.679695
G1 F1200.0 X101.427835 Y24.627834
G1 F1200.0 X101.233958 Y24.488803
G1 F1200.0 X101.076689 Y24.07648
G1 F1200.0 X101.233958 Y24.488803
G1 F1200.0 X101.427835 Y24.627834
G1 F1200.0 X101.696132 Y24.679695
G1 F1200.0 X102.122151 Y24.522127
G1 F1200.0 X102.245619 Y24.257349
G4 P0
M280 S90 P0 F3000 R
G1 F3000 X99.625609 Y23.263433
G4 P0
M280 S-80 P0 F3000 R
G1 F1200.0 X99.625609 Y23.263433
G1 F1200.0 X99.625609 Y25.296033
G1 F1200.0 X99.625609 Y23.263433
G1 F1200.0 X99.72914 Y23.08144
G1 F1200.0 X99.949459 Y23.066372
G1 F1200.0 X99.72914 Y23.08144
G1 F1200.0 X99.625609 Y23.263433
G4 P0
M280 S90 P0 F3000 R
G1 F3000 X99.955668 Y24.695535
G4 P0
M280 S-80 P0 F3000 R
G1 F1200.0 X99.955668 Y24.695535
G1 F1200.0 X99.292128 Y24.695535
G1 F1200.0 X99.955668 Y24.695535
G4 P0
M280 S90 P0 F3000 R
G1 F3000 X97.876184 Y23.050532
G4 P0
M280 S-80 P0 F3000 R
G1 F1200.0 X97.876184 Y23.050532
G1 F1200.0 X97.876184 Y24.679695
G1 F1200.0 X97.876184 Y23.050532
G4 P0
M280 S90 P0 F3000 R
G1 F3000 X97.876184 Y23.882523
G4 P0
M280 S-80 P0 F3000 R
G1 F1200.0 X97.876184 Y23.882523
G1 F1200.0 X98.072998 Y24.419208
G1 F1200.0 X98.2754 Y24.607797
G1 F1200.0 X98.498731 Y24.679695
G1 F1200.0 X98.2754 Y24.607797
G1 F1200.0 X98.072998 Y24.419208
G1 F1200.0 X97.876184 Y23.882523
G4 P0
M280 S90 P0 F3000 R
G1 F3000 X96.771707 Y23.050532
G4 P0
M280 S-80 P0 F3000 R
G1 F1200.0 X96.771707 Y23.050532
G1 F1200.0 X96.658871 Y23.082264
G1 F1200.0 X96.546035 Y23.256872
G1 F1200.0 X96.546035 Y24.301764
G1 F1200.0 X96.459186 Y24.545569
G1 F1200.0 X96.050629 Y24.689361
G1 F1200.0 X95.596234 Y24.56752
G1 F1200.0 X95.463254 Y24.295555
G1 F1200.0 X95.596234 Y24.56752
G1 F1200.0 X96.050629 Y24.689361
G1 F1200.0 X96.459186 Y24.545569
G1 F1200.0 X96.546035 Y24.301764
G1 F1200.0 X96.546035 Y23.256872
G1 F1200.0 X96.658871 Y23.082264
G1 F1200.0 X96.771707 Y23.050532
G4 P0
M280 S90 P0 F3000 R
G1 F3000 X96.546035 Y23.466669
G4 P0
M280 S-80 P0 F3000 R
G1 F1200.0 X96.546035 Y23.466669
G1 F1200.0 X96.266653 Y23.19421
G1 F1200.0 X95.863234 Y23.031553
G1 F1200.0 X95.527896 Y23.117564
G1 F1200.0 X95.390229 Y23.415692
G1 F1200.0 X95.521185 Y23.740005
G1 F1200.0 X95.904579 Y23.866648
G1 F1200.0 X96.546035 Y23.993789
G1 F1200.0 X95.904579 Y23.866648
G1 F1200.0 X95.521185 Y23.740005
G1 F1200.0 X95.390229 Y23.415692
G1 F1200.0 X95.527896 Y23.117564
G1 F1200.0 X95.863234 Y23.031553
G1 F1200.0 X96.266653 Y23.19421
G1 F1200.0 X96.546035 Y23.466669
G4 P0
M280 S90 P0 F3000 R
G1 F3000 X93.758632 Y23.050532
G4 P0
M280 S-80 P0 F3000 R
G1 F1200.0 X93.758632 Y23.050532
G1 F1200.0 X94.019177 Y23.089884
G1 F1200.0 X94.233316 Y23.224804
G1 F1200.0 X94.378407 Y23.480586
G1 F1200.0 X94.431802 Y23.882523
G1 F1200.0 X94.378407 Y24.282651
G1 F1200.0 X94.233316 Y24.537512
G1 F1200.0 X94.019177 Y24.672101
G1 F1200.0 X93.758632 Y24.71141
G1 F1200.0 X93.498354 Y24.672101
G1 F1200.0 X93.285178 Y24.537512
G1 F1200.0 X93.141124 Y24.282651
G1 F1200.0 X93.088213 Y23.882523
G1 F1200.0 X93.141124 Y23.480586
G1 F1200.0 X93.285178 Y23.224804
G1 F1200.0 X93.498354 Y23.089884
G1 F1200.0 X93.758632 Y23.050532
G4 P0
M280 S90 P0 F3000 R
G1 F3000 X93.085109 Y22.418354
G4 P0
M280 S-80 P0 F3000 R
G1 F1200.0 X93.085109 Y22.418354
G1 F1200.0 X93.085109 Y24.71141
G1 F1200.0 X93.085109 Y22.418354
G4 P0
M280 S90 P0 F3000 R
G1 F3000 X89.802264 Y23.050532
G4 P0
M280 S-80 P0 F3000 R
G1 F1200.0 X89.802264 Y23.050532
G1 F1200.0 X89.802264 Y24.679695
G1 F1200.0 X89.802264 Y23.050532
G4 P0
M280 S90 P0 F3000 R
G1 F3000 X89.802264 Y23.882523
G4 P0
M280 S-80 P0 F3000 R
G1 F1200.0 X89.802264 Y23.882523
G1 F1200.0 X89.999079 Y24.419208
G1 F1200.0 X90.201481 Y24.607797
G1 F1200.0 X90.424811 Y24.679695
G1 F1200.0 X90.201481 Y24.607797
G1 F1200.0 X89.999079 Y24.419208
G1 F1200.0 X89.802264 Y23.882523
G4 P0
M280 S90 P0 F3000 R
G1 F3000 X88.405617 Y23.053601
G4 P0
M280 S-80 P0 F3000 R
G1 F1200.0 X88.405617 Y23.053601
G1 F1200.0 X88.405617 Y24.686257
G1 F1200.0 X88.405617 Y23.053601
G4 P0
M280 S90 P0 F3000 R
G1 F3000 X87.233619 Y23.475982
G4 P0
M280 S-80 P0 F3000 R
G1 F1200.0 X87.233619 Y23.475982
G1 F1200.0 X87.233619 Y24.686257
G1 F1200.0 X87.233619 Y23.475982
G4 P0
M280 S90 P0 F3000 R
G1 F3000 X87.233619 Y23.475982
G4 P0
M280 S-80 P0 F3000 R
G1 F1200.0 X87.233619 Y23.475982
G1 F1200.0 X87.357073 Y23.211174
G1 F1200.0 X87.783106 Y23.053601
G1 F1200.0 X88.051868 Y23.105538
G1 F1200.0 X88.246801 Y23.244701
G1 F1200.0 X88.405617 Y23.657204
G1 F1200.0 X88.246801 Y23.244701
G1 F1200.0 X88.051868 Y23.105538
G1 F1200.0 X87.783106 Y23.053601
G1 F1200.0 X87.357073 Y23.211174
G1 F1200.0 X87.233619 Y23.475982
G4 P0
M280 S90 P0 F3000 R
G1 F3000 X84.811376 Y23.882523
G4 P0
M280 S-80 P0 F3000 R
G1 F1200.0 X84.811376 Y23.882523
G1 F1200.0 X84.86861 Y24.282651
G1 F1200.0 X85.024057 Y24.537512
G1 F1200.0 X85.253336 Y24.672101
G1 F1200.0 X85.532066 Y24.71141
G1 F1200.0 X85.812315 Y24.672101
G1 F1200.0 X86.041565 Y24.537512
G1 F1200.0 X86.196335 Y24.282651
G1 F1200.0 X86.253144 Y23.882523
G1 F1200.0 X86.196335 Y23.480586
G1 F1200.0 X86.041565 Y23.224804
G1 F1200.0 X85.812315 Y23.089884
G1 F1200.0 X85.532066 Y23.050532
G1 F1200.0 X85.253336 Y23.089884
G1 F1200.0 X85.024057 Y23.224804
G1 F1200.0 X84.86861 Y23.480586
G1 F1200.0 X84.811376 Y23.882523
G4 P0
M280 S90 P0 F3000 R
G1 F3000 X82.256136 Y24.257349
G4 P0
M280 S-80 P0 F3000 R
G1 F1200.0 X82.256136 Y24.257349
G1 F1200.0 X82.256136 Y23.050532
G1 F1200.0 X82.256136 Y24.257349
G4 P0
M280 S90 P0 F3000 R
G1 F3000 X82.256136 Y24.257349
G4 P0
M280 S-80 P0 F3000 R
G1 F1200.0 X82.256136 Y24.257349
G1 F1200.0 X82.135812 Y24.522127
G1 F1200.0 X81.713176 Y24.679695
G1 F1200.0 X81.457134 Y24.627834
G1 F1200.0 X81.287157 Y24.488803
G1 F1200.0 X81.163689 Y24.07648
G1 F1200.0 X81.287157 Y24.488803
G1 F1200.0 X81.457134 Y24.627834
G1 F1200.0 X81.713176 Y24.679695
G1 F1200.0 X82.135812 Y24.522127
G1 F1200.0 X82.256136 Y24.257349
G4 P0
M280 S90 P0 F3000 R
G1 F3000 X80.080556 Y24.679695
G4 P0
M280 S-80 P0 F3000 R
G1 F1200.0 X80.080556 Y24.679695
G1 F1200.0 X80.080556 Y23.050532
G1 F1200.0 X80.080556 Y24.679695
G4 P0
M280 S90 P0 F3000 R
G1 F3000 X81.163689 Y24.257349
G4 P0
M280 S-80 P0 F3000 R
G1 F1200.0 X81.163689 Y24.257349
G1 F1200.0 X81.163689 Y23.050532
G1 F1200.0 X81.163689 Y24.257349
G4 P0
M280 S90 P0 F3000 R
G1 F3000 X81.163689 Y24.257349
G4 P0
M280 S-80 P0 F3000 R
G1 F1200.0 X81.163689 Y24.257349
G1 F1200.0 X81.06559 Y24.522127
G1 F1200.0 X80.665179 Y24.679695
G1 F1200.0 X80.403647 Y24.627834
G1 F1200.0 X80.221592 Y24.488803
G1 F1200.0 X80.080556 Y24.07648
G1 F1200.0 X80.221592 Y24.488803
G1 F1200.0 X80.403647 Y24.627834
G1 F1200.0 X80.665179 Y24.679695
G1 F1200.0 X81.06559 Y24.522127
G1 F1200.0 X81.163689 Y24.257349
G4 P0
M280 S90 P0 F3000 R
G1 F3000 X77.540838 Y23.882523
G4 P0
M280 S-80 P0 F3000 R
G1 F1200.0 X77.540838 Y23.882523
G1 F1200.0 X77.598072 Y24.282651
G1 F1200.0 X77.753523 Y24.537512
G1 F1200.0 X77.982813 Y24.672101
G1 F1200.0 X78.261563 Y24.71141
G1 F1200.0 X78.541791 Y24.672101
G1 F1200.0 X78.771031 Y24.537512
G1 F1200.0 X78.925798 Y24.282651
G1 F1200.0 X78.982605 Y23.882523
G1 F1200.0 X78.925798 Y23.480586
G1 F1200.0 X78.771031 Y23.224804
G1 F1200.0 X78.541791 Y23.089884
G1 F1200.0 X78.261563 Y23.050532
G1 F1200.0 X77.982813 Y23.089884
G1 F1200.0 X77.753523 Y23.224804
G1 F1200.0 X77.598072 Y23.480586
G1 F1200.0 X77.540838 Y23.882523
G4 P0
M280 S90 P0 F3000 R
G1 F3000 X76.188288 Y23.050532
G4 P0
M280 S-80 P0 F3000 R
G1 F1200.0 X76.188288 Y23.050532
G1 F1200.0 X76.188288 Y24.679695
G1 F1200.0 X76.188288 Y23.050532
G4 P0
M280 S90 P0 F3000 R
G1 F3000 X76.188288 Y23.882523
G4 P0
M280 S-80 P0 F3000 R
G1 F1200.0 X76.188288 Y23.882523
G1 F1200.0 X76.385098 Y24.419208
G1 F1200.0 X76.587489 Y24.607797
G1 F1200.0 X76.810799 Y24.679695
G1 F1200.0 X76.587489 Y24.607797
G1 F1200.0 X76.385098 Y24.419208
G1 F1200.0 X76.188288 Y23.882523
G4 P0
M280 S90 P0 F3000 R
G1 F3000 X74.73756 Y24.679695
G4 P0
M280 S-80 P0 F3000 R
G1 F1200.0 X74.73756 Y24.679695
G1 F1200.0 X74.781613 Y25.183986
G1 F1200.0 X74.886239 Y25.302446
G1 F1200.0 X75.089985 Y25.340483
G1 F1200.0 X74.886239 Y25.302446
G1 F1200.0 X74.781613 Y25.183986
G1 F1200.0 X74.73756 Y24.679695
G1 F1200.0 X74.73756 Y23.050532
G1 F1200.0 X74.73756 Y24.679695
G4 P0
M280 S90 P0 F3000 R
G1 F3000 X75.121699 Y24.679695
G4 P0
M280 S-80 P0 F3000 R
G1 F1200.0 X75.121699 Y24.679695
G1 F1200.0 X74.477104 Y24.679695
G1 F1200.0 X75.121699 Y24.679695
G4 P0
M280 S90 P0 F3000 R
G1 F3000 X71.845064 Y23.263433
G4 P0
M280 S-80 P0 F3000 R
G1 F1200.0 X71.845064 Y23.263433
G1 F1200.0 X71.845064 Y25.296033
G1 F1200.0 X71.845064 Y23.263433
G1 F1200.0 X71.948578 Y23.08144
G1 F1200.0 X72.168879 Y23.066372
G1 F1200.0 X71.948578 Y23.08144
G1 F1200.0 X71.845064 Y23.263433
G4 P0
M280 S90 P0 F3000 R
G1 F3000 X72.175088 Y24.695535
G4 P0
M280 S-80 P0 F3000 R
G1 F1200.0 X72.175088 Y24.695535
G1 F1200.0 X71.511583 Y24.695535
G1 F1200.0 X72.175088 Y24.695535
G4 P0
M280 S90 P0 F3000 R
G1 F3000 X70.095639 Y23.050532
G4 P0
M280 S-80 P0 F3000 R
G1 F1200.0 X70.095639 Y23.050532
G1 F1200.0 X70.095639 Y24.679695
G1 F1200.0 X70.095639 Y23.050532
G4 P0
M280 S90 P0 F3000 R
G1 F3000 X70.095639 Y23.882523
G4 P0
M280 S-80 P0 F3000 R
G1 F1200.0 X70.095639 Y23.882523
G1 F1200.0 X70.292423 Y24.419208
G1 F1200.0 X70.494821 Y24.607797
G1 F1200.0 X70.718151 Y24.679695
G1 F1200.0 X70.494821 Y24.607797
G1 F1200.0 X70.292423 Y24.419208
G1 F1200.0 X70.095639 Y23.882523
G4 P0
M280 S90 P0 F3000 R
G1 F3000 X67.546255 Y23.882523
G4 P0
M280 S-80 P0 F3000 R
G1 F1200.0 X67.546255 Y23.882523
G1 F1200.0 X67.603495 Y24.282651
G1 F1200.0 X67.758954 Y24.537512
G1 F1200.0 X67.988245 Y24.672101
G1 F1200.0 X68.26698 Y24.71141
G1 F1200.0 X68.547224 Y24.672101
G1 F1200.0 X68.776462 Y24.537512
G1 F1200.0 X68.93122 Y24.282651
G1 F1200.0 X68.988023 Y23.882523
G1 F1200.0 X68.93122 Y23.480586
G1 F1200.0 X68.776462 Y23.224804
G1 F1200.0 X68.547224 Y23.089884
G1 F1200.0 X68.26698 Y23.050532
G1 F1200.0 X67.988245 Y23.089884
G1 F1200.0 X67.758954 Y23.224804
G1 F1200.0 X67.603495 Y23.480586
G1 F1200.0 X67.546255 Y23.882523
G4 P0
M280 S90 P0 F3000 R
G1 F3000 X65.307633 Y23.882523
G4 P0
M280 S-80 P0 F3000 R
G1 F1200.0 X65.307633 Y23.882523
G1 F1200.0 X65.360549 Y24.282651
G1 F1200.0 X65.504611 Y24.537512
G1 F1200.0 X65.717789 Y24.672101
G1 F1200.0 X65.978052 Y24.71141
G1 F1200.0 X66.238612 Y24.672101
G1 F1200.0 X66.45275 Y24.537512
G1 F1200.0 X66.597832 Y24.282651
G1 F1200.0 X66.651223 Y23.882523
G1 F1200.0 X66.597832 Y23.480586
G1 F1200.0 X66.45275 Y23.224804
G1 F1200.0 X66.238612 Y23.089884
G1 F1200.0 X65.978052 Y23.050532
G1 F1200.0 X65.717789 Y23.089884
G1 F1200.0 X65.504611 Y23.224804
G1 F1200.0 X65.360549 Y23.480586
G1 F1200.0 X65.307633 Y23.882523
G4 P0
M280 S90 P0 F3000 R
G1 F3000 X65.304529 Y24.71141
G4 P0
M280 S-80 P0 F3000 R
G1 F1200.0 X65.304529 Y24.71141
G1 F1200.0 X65.304529 Y22.418354
G1 F1200.0 X65.304529 Y24.71141
G4 P0
M280 S90 P0 F3000 R
G1 F3000 X62.850254 Y23.882523
G4 P0
M280 S-80 P0 F3000 R
G1 F1200.0 X62.850254 Y23.882523
G1 F1200.0 X62.90317 Y24.282651
G1 F1200.0 X63.047232 Y24.537512
G1 F1200.0 X63.260409 Y24.672101
G1 F1200.0 X63.520673 Y24.71141
G1 F1200.0 X63.781217 Y24.672101
G1 F1200.0 X63.995357 Y24.537512
G1 F1200.0 X64.140448 Y24.282651
G1 F1200.0 X64.193843 Y23.882523
G1 F1200.0 X64.140448 Y23.480586
G1 F1200.0 X63.995357 Y23.224804
G1 F1200.0 X63.781217 Y23.089884
G1 F1200.0 X63.520673 Y23.050532
G1 F1200.0 X63.260409 Y23.089884
G1 F1200.0 X63.047232 Y23.224804
G1 F1200.0 X62.90317 Y23.480586
G1 F1200.0 X62.850254 Y23.882523
G4 P0
M280 S90 P0 F3000 R
G1 F3000 X62.847149 Y24.71141
G4 P0
M280 S-80 P0 F3000 R
G1 F1200.0 X62.847149 Y24.71141
G1 F1200.0 X62.847149 Y22.418354
G1 F1200.0 X62.847149 Y24.71141
G4 P0
M280 S90 P0 F3000 R
G1 F3000 X61.396774 Y24.686257
G4 P0
M280 S-80 P0 F3000 R
G1 F1200.0 X61.396774 Y24.686257
G1 F1200.0 X61.396774 Y23.053601
G1 F1200.0 X61.396774 Y24.686257
G4 P0
M280 S90 P0 F3000 R
G1 F3000 X60.224741 Y24.686257
G4 P0
M280 S-80 P0 F3000 R
G1 F1200.0 X60.224741 Y24.686257
G1 F1200.0 X60.224741 Y23.475982
G1 F1200.0 X60.348208 Y23.211174
G1 F1200.0 X60.774227 Y23.053601
G1 F1200.0 X61.04301 Y23.105538
G1 F1200.0 X61.237954 Y23.244701
G1 F1200.0 X61.396774 Y23.657204
G1 F1200.0 X61.237954 Y23.244701
G1 F1200.0 X61.04301 Y23.105538
G1 F1200.0 X60.774227 Y23.053601
G1 F1200.0 X60.348208 Y23.211174
G1 F1200.0 X60.224741 Y23.475982
G1 F1200.0 X60.224741 Y24.686257
G4 P0
M280 S90 P0 F3000 R
G1 F3000 X59.253579 Y24.38756
G4 P0
M280 S-80 P0 F3000 R
G1 F1200.0 X59.253579 Y24.38756
G1 F1200.0 X59.1566 Y24.570285
G1 F1200.0 X58.754716 Y24.705201
G1 F1200.0 X58.312588 Y24.619498
G1 F1200.0 X58.170445 Y24.34311
G1 F1200.0 X58.283175 Y24.085507
G1 F1200.0 X58.453267 Y23.996894
G1 F1200.0 X59.053412 Y23.819129
G1 F1200.0 X59.218169 Y23.730286
G1 F1200.0 X59.323499 Y23.479439
G1 F1200.0 X59.158223 Y23.176747
G1 F1200.0 X58.754716 Y23.050532
G1 F1200.0 X58.332573 Y23.165718
G1 F1200.0 X58.148396 Y23.466669
G1 F1200.0 X58.332573 Y23.165718
G1 F1200.0 X58.754716 Y23.050532
G1 F1200.0 X59.158223 Y23.176747
G1 F1200.0 X59.323499 Y23.479439
G1 F1200.0 X59.218169 Y23.730286
G1 F1200.0 X59.053412 Y23.819129
G1 F1200.0 X58.453267 Y23.996894
G1 F1200.0 X58.283175 Y24.085507
G1 F1200.0 X58.170445 Y24.34311
G1 F1200.0 X58.312588 Y24.619498
G1 F1200.0 X58.754716 Y24.705201
G1 F1200.0 X59.1566 Y24.570285
G1 F1200.0 X59.253579 Y24.38756
G4 P0
M280 S90 P0 F3000 R
G1 F3000 X55.452963 Y25.346657
G4 P0
M280 S-80 P0 F3000 R
G1 F1200.0 X55.452963 Y25.346657
G1 F1200.0 X55.452963 Y23.050532
G1 F1200.0 X55.452963 Y25.346657
G4 P0
M280 S90 P0 F3000 R
G1 F3000 X54.776688 Y24.689361
G4 P0
M280 S-80 P0 F3000 R
G1 F1200.0 X54.776688 Y24.689361
G1 F1200.0 X55.037232 Y24.650634
G1 F1200.0 X55.251372 Y24.517788
G1 F1200.0 X55.396462 Y24.265826
G1 F1200.0 X55.449858 Y23.869753
G1 F1200.0 X55.396462 Y23.473888
G1 F1200.0 X55.251372 Y23.222044
G1 F1200.0 X55.037232 Y23.089248
G1 F1200.0 X54.776688 Y23.050532
G1 F1200.0 X54.516459 Y23.089248
